!!!!SEGMENT: pl-wtm--r-1723--005_stefani-jozef--noc-i-poranek-w-obozie-allegro.krn
!!!cenid: 18xx:2331
!!!COM: Stefani, Józef
!!!COM-rismid: pe30024097
!!!CDT: 1800/04/16-1876/03/19
!!!CNT: Polish
!!!OPR: Noc i poranek w obozie
!!!OTL: Allegro
!!!OMV: 005
!!!PDT:
!!!AGN: Secular
!!!SMS-siglum: PL-Wtm
!!!SMS-shelfmark: R 1723
!!!SMS-shelfwork: 001-005 M
!!!SMS-variant:
!!!SMS-altvar:
!!!NIFC-rismid: 1001128950
!!!URL-scan: http://repozytorium.nifc.pl/skany/pl-wtm-nut--r1723
!!!ONB-nifc: UWAGA: skany 0020-0026
!!!OMD: Allegro.
**kern	**dynam	**kern	**dynam	**kern	**dynam	**kern	**dynam	**kern	**dynam	**kern	**dynam	**kern	**kern	**dynam	**kern	**dynam	**kern	**kern	**dynam	**kern	**dynam	**kern	**kern	**kern	**dynam	**kern	**dynam	**kern	**dynam	**kern	**dynam	**kern	**dynam
*part19	*part19	*part18	*part18	*part17	*part17	*part16	*part16	*part15	*part15	*part14	*part14	*part13	*part12	*part12	*part11	*part11	*part10	*part9	*part9	*part8	*part8	*part7	*part6	*part5	*part5	*part4	*part4	*part3	*part3	*part2	*part2	*part1	*part1
*staff19	*	*staff18	*	*staff17	*	*staff16	*	*staff15	*	*staff14	*	*staff13	*staff12	*	*staff11	*	*staff10	*staff9	*	*staff8	*	*staff7	*staff6	*staff5	*	*staff4	*	*staff3	*	*staff2	*	*staff1	*
*stria1	*	*	*	*	*	*	*	*	*	*	*	*	*	*	*	*	*	*	*	*	*	*	*	*	*	*	*	*	*	*	*	*	*
*IdrumS	*	*Icbass	*	*Icello	*	*Iviola	*	*Ivioln	*	*Ivioln	*	*Ibdrum	*Itrngl	*	*Itimpa	*	*Itromt	*Itromt	*	*Itromp	*	*Itromp	*Ifagot	*Icor	*	*Iclars	*	*Ioboe	*	*Ipicco	*	*Iflt	*
*I"P. Tambour	*	*I"C: Baſsi	*	*I"Violoncelli	*	*I"Viole	*	*I"Violini	*	*I"Violini	*	*I"G. Caſsa	*I"Triangolo	*	*I"in C. G. Timpani	*	*I"Tromboni	*I"Tromboni	*	*I"in C Trombe tutti	*	*I"solo Tromba in C	*I"Fagoto	*I"in C Corni	*	*I"in C Clarinetti	*	*I"Oboe	*	*I"F. Picolo	*	*I"Flauto	*
*>[A,B,B1,B2,C,B2,C,D]	*	*>[A,B,B1,B2,C,B2,C,D]	*	*>[A,B,B1,B2,C,B2,C,D]	*	*>[A,B,B1,B2,C,B2,C,D]	*	*>[A,B,B1,B2,C,B2,C,D]	*	*>[A,B,B1,B2,C,B2,C,D]	*	*>[A,B,B1,B2,C,B2,C,D]	*>[A,B,B1,B2,C,B2,C,D]	*	*>[A,B,B1,B2,C,B2,C,D]	*	*>[A,B,B1,B2,C,B2,C,D]	*>[A,B,B1,B2,C,B2,C,D]	*	*>[A,B,B1,B2,C,B2,C,D]	*	*>[A,B,B1,B2,C,B2,C,D]	*>[A,B,B1,B2,C,B2,C,D]	*>[A,B,B1,B2,C,B2,C,D]	*	*>[A,B,B1,B2,C,B2,C,D]	*	*>[A,B,B1,B2,C,B2,C,D]	*	*>[A,B,B1,B2,C,B2,C,D]	*	*>[A,B,B1,B2,C,B2,C,D]	*
*clefF1	*	*clefF4	*	*clefF4	*	*clefC3	*	*clefG2	*	*clefG2	*	*clefF4	*clefG2	*	*clefF4	*	*clefF4	*clefC4	*	*clefG2	*	*clefG2	*clefF4	*clefG2	*	*clefG2	*	*clefG2	*	*clefG2	*	*clefG2	*
*	*	*Trd0c0	*	*	*	*	*	*	*	*	*	*	*	*	*	*	*	*	*	*	*	*	*	*Trd0c0	*	*	*	*	*	*Trd0c0	*	*	*
*k[]	*	*k[]	*	*k[]	*	*k[]	*	*k[]	*	*k[]	*	*k[]	*k[]	*	*k[]	*	*k[]	*k[]	*	*k[]	*	*k[]	*k[]	*k[]	*	*k[]	*	*k[]	*	*k[]	*	*k[]	*
*C:	*	*C:	*	*C:	*	*C:	*	*C:	*	*C:	*	*C:	*C:	*	*C:	*	*C:	*C:	*	*C:	*	*C:	*C:	*C:	*	*C:	*	*C:	*	*C:	*	*C:	*
*M2/4	*	*M2/4	*	*M2/4	*	*M2/4	*	*M2/4	*	*M2/4	*	*M2/4	*M2/4	*	*M2/4	*	*M2/4	*M2/4	*	*M2/4	*	*M2/4	*M2/4	*M2/4	*	*M2/4	*	*M2/4	*	*M2/4	*	*M2/4	*
=1	=1	=1	=1	=1	=1	=1	=1	=1	=1	=1	=1	=1	=1	=1	=1	=1	=1	=1	=1	=1	=1	=1	=1	=1	=1	=1	=1	=1	=1	=1	=1	=1	=1
*all\right	*	*all\right	*	*all\right	*	*all\right	*	*all\right	*	*all\right	*	*all\right	*all\right	*	*all\right	*	*all\right	*all\right	*	*all\right	*	*all\right	*all\right	*all\right	*	*all\right	*	*all\right	*	*all\right	*	*all\right	*
*>A	*	*>A	*	*>A	*	*>A	*	*>A	*	*>A	*	*>A	*>A	*	*>A	*	*>A	*>A	*	*>A	*	*>A	*>A	*>A	*	*>A	*	*>A	*	*>A	*	*>A	*
!	!	!	!	!	!	!	!	!	!	!	!	!	!	!	!	!	!	!	!	!	!	!	!	!	!	!	!	!	!	!	!	!LO:TX:t=P:problem:>A:global	!
!	!	!	!LO:DY:rj	!	!LO:DY:rj	!	!	!	!	!	!	!	!	!	!	!	!	!	!	!	!	!	!	!	!	!	!	!	!	!	!	!	!
2ryy	.	8C/	p	8C/yy	py	8r	.	8r	p	2r	.	2r	2r	.	2r	.	2r	2r	.	2r	.	8ee'\L	2r	2r	.	2r	.	2r	.	2r	.	2r	.
.	.	8r	.	8ryy	.	8c\	.	8e/ 8G/	.	.	.	.	.	.	.	.	.	.	.	.	.	8b'\	.	.	.	.	.	.	.	.	.	.	.
.	.	8C/	.	8C/yy	.	8r	.	8r	.	.	.	.	.	.	.	.	.	.	.	.	.	8cc'\	.	.	.	.	.	.	.	.	.	.	.
.	.	8r	.	8ryy	.	8c\	.	8e/ 8G/	.	.	.	.	.	.	.	.	.	.	.	.	.	8g'\J	.	.	.	.	.	.	.	.	.	.	.
!!LO:PB:g=original
=2	=2	=2	=2	=2	=2	=2	=2	=2	=2	=2	=2	=2	=2	=2	=2	=2	=2	=2	=2	=2	=2	=2	=2	=2	=2	=2	=2	=2	=2	=2	=2	=2	=2
2ryy	.	8C/	.	8C/yy	.	8r	.	8r	.	2r	.	2r	2r	.	2r	.	2r	2r	.	2r	.	8a/L	2r	2r	.	2r	.	2r	.	2r	.	2r	.
.	.	8r	.	8ryy	.	8c\	.	8e/ 8G/	.	.	.	.	.	.	.	.	.	.	.	.	.	8g/	.	.	.	.	.	.	.	.	.	.	.
.	.	8C/	.	8C/yy	.	8r	.	8r	.	.	.	.	.	.	.	.	.	.	.	.	.	8f#X/	.	.	.	.	.	.	.	.	.	.	.
.	.	8r	.	8ryy	.	8c\	.	8e/ 8G/	.	.	.	.	.	.	.	.	.	.	.	.	.	8g/J	.	.	.	.	.	.	.	.	.	.	.
=3	=3	=3	=3	=3	=3	=3	=3	=3	=3	=3	=3	=3	=3	=3	=3	=3	=3	=3	=3	=3	=3	=3	=3	=3	=3	=3	=3	=3	=3	=3	=3	=3	=3
2ryy	.	8GG/	.	8GG/yy	.	8r	.	8r	.	2r	.	2ryy	2ryy	.	2ryy	.	2ryy	2ryy	.	2ryy	.	8fn/L	2ryy	2ryy	.	2ryy	.	2ryy	.	2ryy	.	2r	.
.	.	8r	.	8ryy	.	8d\	.	8f/ 8G/	.	.	.	.	.	.	.	.	.	.	.	.	.	8dd/	.	.	.	.	.	.	.	.	.	.	.
.	.	8GG/	.	8GG/yy	.	8r	.	8r	.	.	.	.	.	.	.	.	.	.	.	.	.	8b/	.	.	.	.	.	.	.	.	.	.	.
.	.	8r	.	8ryy	.	8d\	.	8f/ 8G/	.	.	.	.	.	.	.	.	.	.	.	.	.	8f/J	.	.	.	.	.	.	.	.	.	.	.
=4	=4	=4	=4	=4	=4	=4	=4	=4	=4	=4	=4	=4	=4	=4	=4	=4	=4	=4	=4	=4	=4	=4	=4	=4	=4	=4	=4	=4	=4	=4	=4	=4	=4
2ryy	.	8C/	.	8C/yy	.	8r	.	8r	.	2r	.	2ryy	2ryy	.	2ryy	.	2ryy	2ryy	.	2ryy	.	8e'/L	2ryy	2ryy	.	2ryy	.	2ryy	.	2ryy	.	2r	.
.	.	8r	.	8ryy	.	8c\	.	8e/ 8G/	.	.	.	.	.	.	.	.	.	.	.	.	.	8g'/	.	.	.	.	.	.	.	.	.	.	.
.	.	8C/	.	8C/yy	.	8r	.	8r	.	.	.	.	.	.	.	.	.	.	.	.	.	(8b/	.	.	.	.	.	.	.	.	.	.	.
.	.	8r	.	8ryy	.	8c\	.	8e/ 8G/	.	.	.	.	.	.	.	.	.	.	.	.	.	8cc/J)	.	.	.	.	.	.	.	.	.	.	.
=5	=5	=5	=5	=5	=5	=5	=5	=5	=5	=5	=5	=5	=5	=5	=5	=5	=5	=5	=5	=5	=5	=5	=5	=5	=5	=5	=5	=5	=5	=5	=5	=5	=5
*	*	*rep	*	*repy	*	*rep	*	*rep	*	*	*	*	*	*	*	*	*	*	*	*	*	*	*	*	*	*	*	*	*	*	*	*	*
2ryy	.	8C/	.	8C/yy	.	8r	.	8r	.	2r	.	2ryy	2ryy	.	2ryy	.	2ryy	2ryy	.	2ryy	.	8ee\L	2ryy	2ryy	.	2ryy	.	2ryy	.	2ryy	.	2r	.
.	.	8r	.	8ryy	.	8c\	.	8e/ 8G/	.	.	.	.	.	.	.	.	.	.	.	.	.	8b\	.	.	.	.	.	.	.	.	.	.	.
.	.	8C/	.	8C/yy	.	8r	.	8r	.	.	.	.	.	.	.	.	.	.	.	.	.	8cc\	.	.	.	.	.	.	.	.	.	.	.
.	.	8r	.	8ryy	.	8c\	.	8e/ 8G/	.	.	.	.	.	.	.	.	.	.	.	.	.	8g\J	.	.	.	.	.	.	.	.	.	.	.
*	*	*Xrep	*	*Xrep	*	*Xrep	*	*Xrep	*	*	*	*	*	*	*	*	*	*	*	*	*	*	*	*	*	*	*	*	*	*	*	*	*
=6	=6	=6	=6	=6	=6	=6	=6	=6	=6	=6	=6	=6	=6	=6	=6	=6	=6	=6	=6	=6	=6	=6	=6	=6	=6	=6	=6	=6	=6	=6	=6	=6	=6
*	*	*rep	*	*repy	*	*rep	*	*rep	*	*	*	*	*	*	*	*	*	*	*	*	*	*	*	*	*	*	*	*	*	*	*	*	*
2ryy	.	8C/	.	8C/yy	.	8r	.	8r	.	2r	.	2ryy	2ryy	.	2ryy	.	2ryy	2ryy	.	2ryy	.	8a/L	2ryy	2ryy	.	2ryy	.	2ryy	.	2ryy	.	2r	.
.	.	8r	.	8ryy	.	8c\	.	8e/ 8G/	.	.	.	.	.	.	.	.	.	.	.	.	.	8g/	.	.	.	.	.	.	.	.	.	.	.
.	.	8C/	.	8C/yy	.	8r	.	8r	.	.	.	.	.	.	.	.	.	.	.	.	.	8f#X/	.	.	.	.	.	.	.	.	.	.	.
.	.	8r	.	8ryy	.	8c\	.	8e/ 8G/	.	.	.	.	.	.	.	.	.	.	.	.	.	8g/J	.	.	.	.	.	.	.	.	.	.	.
*	*	*Xrep	*	*Xrep	*	*Xrep	*	*Xrep	*	*	*	*	*	*	*	*	*	*	*	*	*	*	*	*	*	*	*	*	*	*	*	*	*
=7	=7	=7	=7	=7	=7	=7	=7	=7	=7	=7	=7	=7	=7	=7	=7	=7	=7	=7	=7	=7	=7	=7	=7	=7	=7	=7	=7	=7	=7	=7	=7	=7	=7
2ryy	.	8GG/	.	8GG/yy	.	8r	.	8r	.	2r	.	2ryy	2ryy	.	2ryy	.	2ryy	2ryy	.	2ryy	.	8fn/L	2ryy	2ryy	.	2ryy	.	2ryy	.	2ryy	.	2r	.
.	.	8r	.	8ryy	.	8B/	.	8f/ 8G/	.	.	.	.	.	.	.	.	.	.	.	.	.	8dd/	.	.	.	.	.	.	.	.	.	.	.
.	.	8G\	.	8G\yy	.	8r	.	8r	.	.	.	.	.	.	.	.	.	.	.	.	.	8g/	.	.	.	.	.	.	.	.	.	.	.
.	.	8r	.	8ryy	.	8d\	.	8f/ 8G/	.	.	.	.	.	.	.	.	.	.	.	.	.	8b/J	.	.	.	.	.	.	.	.	.	.	.
!!LO:PB:g=original
=8	=8	=8	=8	=8	=8	=8	=8	=8	=8	=8	=8	=8	=8	=8	=8	=8	=8	=8	=8	=8	=8	=8	=8	=8	=8	=8	=8	=8	=8	=8	=8	=8	=8
2ryy	.	8C/	.	8C/yy	.	8c\	.	8e/ 8G/	.	2r	.	2r	2r	.	2r	.	2r	2r	.	2r	.	8cc\	2r	2r	.	2r	.	2r	.	2r	.	2r	.
.	.	8r	.	8ryy	.	8r	.	8r	.	.	.	.	.	.	.	.	.	.	.	.	.	8r	.	.	.	.	.	.	.	.	.	.	.
.	.	4C/	.	4C/yy	.	4c/ 4C/	.	4cc/ 4e/ 4G/	.	.	.	.	.	.	.	.	.	.	.	.	.	4cc\	.	.	.	.	.	.	.	.	.	.	.
=9	=9	=9	=9	=9	=9	=9	=9	=9	=9	=9	=9	=9	=9	=9	=9	=9	=9	=9	=9	=9	=9	=9	=9	=9	=9	=9	=9	=9	=9	=9	=9	=9	=9
*	*	*	*	*	*	*	*	*	*	*	*	*	*	*	*	*	*	*	*	*	*	*	*	*^	*	*^	*	*	*	*	*	*	*
*	*	*	*	*	*	*	*	*	*	*tremolo	*	*	*	*	*	*	*	*	*	*	*	*	*	*	*2\right	*	*	*2\right	*	*	*	*	*	*	*
!	!	!	!LO:DY:rj	!	!LO:DY:rj	!	!	!	!LO:DY:rj	!	!LO:DY:rj	!	!	!LO:DY:rj	!	!	!	!	!LO:DY:rj	!	!	!	!	!	!	!	!	!	!LO:DY:rj	!	!	!LO:TX:a:t=col Fl	!LO:DY:rj	!LO:TX:a:t=C	!LO:DY:rj
2ryy	.	8C/	f	8C/yy	fy	8r	.	8r	f	16eee\LL 16ee\	f	8Ra/	8r	f	8r	f	8G\ 8C\	8e\ 8c\	f	8r	.	2r	[2C/	[2cc/	[2g\	.	8ee/L	2e\	f	8ee\L	.	8eee\Lyy	fy	8eee\L	f
.	.	.	.	.	.	.	.	.	.	16eee\ 16ee\	.	.	.	.	.	.	.	.	.	.	.	.	.	.	.	.	.	.	.	.	.	.	.	.	.
.	.	8r	.	8ryy	.	8e/ 8G/	.	8g/ 8c/	.	16bb\ 16b\	.	8r	8Ree\	.	8C/	.	8r	8r	.	8g/ 8e/	.	.	.	.	.	.	8b/	.	.	8b\	.	8bb\yy	.	8bb\	.
.	.	.	.	.	.	.	.	.	.	16bb\ 16b\	.	.	.	.	.	.	.	.	.	.	.	.	.	.	.	.	.	.	.	.	.	.	.	.	.
.	.	8C/	.	8C/yy	.	8r	.	8r	.	16ccc\ 16cc\	.	8Ra/	8r	.	8r	.	8G\ 8C\	8e\ 8c\	.	8r	.	.	.	.	.	.	8cc/	.	.	8cc\	.	8ccc\yy	.	8ccc\	.
.	.	.	.	.	.	.	.	.	.	16ccc\ 16cc\	.	.	.	.	.	.	.	.	.	.	.	.	.	.	.	.	.	.	.	.	.	.	.	.	.
.	.	8r	.	8ryy	.	8e/ 8G/	.	8g/ 8c/	.	16gg\ 16g\	.	8r	8Ree\	.	8C/	.	8r	8r	.	8g/ 8e/	.	.	.	.	.	.	8g/J	.	.	8g\J	.	8gg\Jyy	.	8gg\J	.
.	.	.	.	.	.	.	.	.	.	16gg\JJ 16g\	.	.	.	.	.	.	.	.	.	.	.	.	.	.	.	.	.	.	.	.	.	.	.	.	.
=10	=10	=10	=10	=10	=10	=10	=10	=10	=10	=10	=10	=10	=10	=10	=10	=10	=10	=10	=10	=10	=10	=10	=10	=10	=10	=10	=10	=10	=10	=10	=10	=10	=10	=10	=10
*	*	*rep	*	*repy	*	*rep	*	*rep	*	*	*	*rep	*rep	*	*rep	*	*rep	*rep	*	*rep	*	*	*	*	*	*	*	*	*	*	*	*	*	*	*
2ryy	.	8C/	.	8C/yy	.	8r	.	8r	.	16aa\LL 16a\	.	8Ra/	8r	.	8r	.	8G\ 8C\	8e\ 8c\	.	8r	.	2r	2C/]	2cc/]	2g\]	.	8a/L	2e\	.	8a/L	.	8aa\Lyy	.	8aa\L	.
.	.	.	.	.	.	.	.	.	.	16aa\ 16a\	.	.	.	.	.	.	.	.	.	.	.	.	.	.	.	.	.	.	.	.	.	.	.	.	.
.	.	8r	.	8ryy	.	8e/ 8G/	.	8g/ 8c/	.	16gg\ 16g\	.	8r	8Ree\	.	8C/	.	8r	8r	.	8g/ 8e/	.	.	.	.	.	.	8g/	.	.	8g/	.	8gg\yy	.	8gg\	.
.	.	.	.	.	.	.	.	.	.	16gg\ 16g\	.	.	.	.	.	.	.	.	.	.	.	.	.	.	.	.	.	.	.	.	.	.	.	.	.
.	.	8C/	.	8C/yy	.	8r	.	8r	.	16ff#X\ 16f#X\	.	8Ra/	8r	.	8r	.	8G\ 8C\	8e\ 8c\	.	8r	.	.	.	.	.	.	8f#X/	.	.	8f#X/	.	8ff#X\yy	.	8ff#X\	.
.	.	.	.	.	.	.	.	.	.	16ff#\ 16f#\	.	.	.	.	.	.	.	.	.	.	.	.	.	.	.	.	.	.	.	.	.	.	.	.	.
.	.	8r	.	8ryy	.	8e/ 8G/	.	8g/ 8c/	.	16gg\ 16g\	.	8r	8Ree\	.	8C/	.	8r	8r	.	8g/ 8e/	.	.	.	.	.	.	8g/J	.	.	8g/J	.	8gg\Jyy	.	8gg\J	.
.	.	.	.	.	.	.	.	.	.	16gg\JJ 16g\	.	.	.	.	.	.	.	.	.	.	.	.	.	.	.	.	.	.	.	.	.	.	.	.	.
*	*	*Xrep	*	*Xrep	*	*Xrep	*	*Xrep	*	*	*	*Xrep	*Xrep	*	*Xrep	*	*Xrep	*Xrep	*	*Xrep	*	*	*	*	*	*	*	*	*	*	*	*	*	*	*
=11	=11	=11	=11	=11	=11	=11	=11	=11	=11	=11	=11	=11	=11	=11	=11	=11	=11	=11	=11	=11	=11	=11	=11	=11	=11	=11	=11	=11	=11	=11	=11	=11	=11	=11	=11
*	*	*	*	*	*	*	*	*	*	*	*	*rep	*rep	*	*	*	*	*	*	*	*	*	*	*	*	*	*	*	*	*	*	*	*	*	*
2ryy	.	8GG/	.	8GG/yy	.	8r	.	8r	.	16ffn\LL 16fn\	.	8Ra/	8r	.	8r	.	8G\ 8GG\	8d\ 8B\	.	8r	.	2r	2GG/	2b/	2g\	.	8fn/L	2d\	.	8fn/L	.	8ffn\Lyy	.	8ffn\L	.
.	.	.	.	.	.	.	.	.	.	16ff\ 16f\	.	.	.	.	.	.	.	.	.	.	.	.	.	.	.	.	.	.	.	.	.	.	.	.	.
.	.	8r	.	8ryy	.	8f\ 8G\	.	8g/ 8B/	.	16ddd\ 16dd\	.	8r	8Ree\	.	8GG/	.	8r	8r	.	8b/ 8d/	.	.	.	.	.	.	8dd/	.	.	8dd/	.	8ddd\yy	.	8ddd\	.
.	.	.	.	.	.	.	.	.	.	16ddd\ 16dd\	.	.	.	.	.	.	.	.	.	.	.	.	.	.	.	.	.	.	.	.	.	.	.	.	.
.	.	8GG/	.	8GG/yy	.	8r	.	8r	.	16bb\ 16b\	.	8Ra/	8r	.	8r	.	8G\ 8GG\	8f\ 8d\	.	8r	.	.	.	.	.	.	8b/	.	.	8b/	.	8bb\yy	.	8bb\	.
.	.	.	.	.	.	.	.	.	.	16bb\ 16b\	.	.	.	.	.	.	.	.	.	.	.	.	.	.	.	.	.	.	.	.	.	.	.	.	.
.	.	8r	.	8ryy	.	8f\ 8G\	.	8g/ 8B/	.	16ff\ 16f\	.	8r	8Ree\	.	8GG/	.	8r	8r	.	8b/ 8d/	.	.	.	.	.	.	8f/J	.	.	8f/J	.	8ff\Jyy	.	8ff\J	.
.	.	.	.	.	.	.	.	.	.	16ff\JJ 16f\	.	.	.	.	.	.	.	.	.	.	.	.	.	.	.	.	.	.	.	.	.	.	.	.	.
*	*	*	*	*	*	*	*	*	*	*	*	*Xrep	*Xrep	*	*	*	*	*	*	*	*	*	*	*	*	*	*	*	*	*	*	*	*	*	*
=12	=12	=12	=12	=12	=12	=12	=12	=12	=12	=12	=12	=12	=12	=12	=12	=12	=12	=12	=12	=12	=12	=12	=12	=12	=12	=12	=12	=12	=12	=12	=12	=12	=12	=12	=12
*	*	*	*	*	*	*	*	*	*	*	*	*rep	*rep	*	*	*	*	*	*	*	*	*	*	*	*	*	*	*	*	*	*	*	*	*	*
2ryy	.	8C/	.	8C/yy	.	8r	.	8r	.	16ee\LL 16e'\	.	8Ra/	8r	.	8r	.	8G\ 8C\	8e\ 8c\	.	8r	.	2r	2C/	2cc/	2g\	.	8e/L	2e\	.	8e'/L	.	8ee'\Lyy	.	8ee'\L	.
.	.	.	.	.	.	.	.	.	.	16ee\ 16e'\	.	.	.	.	.	.	.	.	.	.	.	.	.	.	.	.	.	.	.	.	.	.	.	.	.
.	.	8r	.	8ryy	.	8e\ 8G\	.	8g/ 8c/	.	16gg\ 16g'\	.	8r	8Ree\	.	8C/	.	8r	8r	.	8cc/ 8e/	.	.	.	.	.	.	8g/	.	.	8g'/	.	8gg'\yy	.	8gg'\	.
.	.	.	.	.	.	.	.	.	.	16gg\ 16g'\	.	.	.	.	.	.	.	.	.	.	.	.	.	.	.	.	.	.	.	.	.	.	.	.	.
.	.	8C/	.	8C/yy	.	8r	.	8r	.	16bb\ 16b\	.	8Ra/	8r	.	8r	.	8G\ 8C\	8e\ 8c\	.	8r	.	.	.	.	.	.	8b/	.	.	(8b/	.	(y8bb\yy	.	(8bb\	.
.	.	.	.	.	.	.	.	.	.	16bb\ 16b\	.	.	.	.	.	.	.	.	.	.	.	.	.	.	.	.	.	.	.	.	.	.	.	.	.
.	.	8r	.	8ryy	.	8e\ 8G\	.	8g/ 8c/	.	16ccc\ 16cc\	.	8r	8Ree\	.	8C/	.	8r	8r	.	8cc/ 8e/	.	.	.	.	.	.	8cc/J	.	.	8cc/J)	.	8ccc\J)yy	.	8ccc\J)	.
.	.	.	.	.	.	.	.	.	.	16ccc\JJ 16cc\	.	.	.	.	.	.	.	.	.	.	.	.	.	.	.	.	.	.	.	.	.	.	.	.	.
*	*	*	*	*	*	*	*	*	*	*	*	*Xrep	*Xrep	*	*	*	*	*	*	*	*	*	*	*	*	*	*	*	*	*	*	*	*	*	*
!!LO:PB:g=original
=13	=13	=13	=13	=13	=13	=13	=13	=13	=13	=13	=13	=13	=13	=13	=13	=13	=13	=13	=13	=13	=13	=13	=13	=13	=13	=13	=13	=13	=13	=13	=13	=13	=13	=13	=13
2ryy	.	8C/	.	8C/yy	.	8r	.	8r	.	16eee\LL 16ee\	.	8Ra/	8r	.	8r	.	8G\ 8C\	8e\ 8c\	.	8r	.	2r	2C/	2cc/	2g\	.	8ee/L	2e\	.	8ee\L	.	8eee\Lyy	.	8eee\L	.
.	.	.	.	.	.	.	.	.	.	16eee\ 16ee\	.	.	.	.	.	.	.	.	.	.	.	.	.	.	.	.	.	.	.	.	.	.	.	.	.
.	.	8r	.	8ryy	.	8e\ 8G\	.	8g/ 8c/	.	16bb\ 16b\	.	8r	8Ree\	.	8C/	.	8r	8r	.	8g/ 8e/	.	.	.	.	.	.	8b/	.	.	8b\	.	8bb\yy	.	8bb\	.
.	.	.	.	.	.	.	.	.	.	16bb\ 16b\	.	.	.	.	.	.	.	.	.	.	.	.	.	.	.	.	.	.	.	.	.	.	.	.	.
.	.	8C/	.	8C/yy	.	8r	.	8r	.	16ccc\ 16cc\	.	8Ra/	8r	.	8r	.	8G\ 8C\	8e\ 8c\	.	8r	.	.	.	.	.	.	8cc/	.	.	8cc\	.	8ccc\yy	.	8ccc\	.
.	.	.	.	.	.	.	.	.	.	16ccc\ 16cc\	.	.	.	.	.	.	.	.	.	.	.	.	.	.	.	.	.	.	.	.	.	.	.	.	.
.	.	8r	.	8ryy	.	8e\ 8G\	.	8g/ 8c/	.	16gg\ 16g\	.	8r	8Ree\	.	8C/	.	8r	8r	.	8g/ 8e/	.	.	.	.	.	.	8g/J	.	.	8g\J	.	8gg\Jyy	.	8gg\J	.
.	.	.	.	.	.	.	.	.	.	16gg\JJ 16g\	.	.	.	.	.	.	.	.	.	.	.	.	.	.	.	.	.	.	.	.	.	.	.	.	.
=14	=14	=14	=14	=14	=14	=14	=14	=14	=14	=14	=14	=14	=14	=14	=14	=14	=14	=14	=14	=14	=14	=14	=14	=14	=14	=14	=14	=14	=14	=14	=14	=14	=14	=14	=14
*	*	*rep	*	*repy	*	*rep	*	*rep	*	*	*	*rep	*rep	*	*rep	*	*rep	*rep	*	*rep	*	*	*	*	*	*	*	*	*	*	*	*	*	*	*
2ryy	.	8C/	.	8C/yy	.	8r	.	8r	.	16aa\LL 16a\	.	8Ra/	8r	.	8r	.	8G\ 8C\	8e\ 8c\	.	8r	.	2r	2C/	2cc/	2g\	.	8a/L	2e\	.	8a/L	.	8aa\Lyy	.	8aa\L	.
.	.	.	.	.	.	.	.	.	.	16aa\ 16a\	.	.	.	.	.	.	.	.	.	.	.	.	.	.	.	.	.	.	.	.	.	.	.	.	.
.	.	8r	.	8ryy	.	8e\ 8G\	.	8g/ 8c/	.	16gg\ 16g\	.	8r	8Ree\	.	8C/	.	8r	8r	.	8g/ 8e/	.	.	.	.	.	.	8g/	.	.	8g/	.	8gg\yy	.	8gg\	.
.	.	.	.	.	.	.	.	.	.	16gg\ 16g\	.	.	.	.	.	.	.	.	.	.	.	.	.	.	.	.	.	.	.	.	.	.	.	.	.
.	.	8C/	.	8C/yy	.	8r	.	8r	.	16ff#X\ 16f#X\	.	8Ra/	8r	.	8r	.	8G\ 8C\	8e\ 8c\	.	8r	.	.	.	.	.	.	8f#X/	.	.	8f#X/	.	8ff#X\yy	.	8ff#X\	.
.	.	.	.	.	.	.	.	.	.	16ff#\ 16f#\	.	.	.	.	.	.	.	.	.	.	.	.	.	.	.	.	.	.	.	.	.	.	.	.	.
.	.	8r	.	8ryy	.	8e\ 8G\	.	8g/ 8c/	.	16gg\ 16g\	.	8r	8Ree\	.	8C/	.	8r	8r	.	8g/ 8e/	.	.	.	.	.	.	8g/J	.	.	8g/J	.	8gg\Jyy	.	8gg\J	.
.	.	.	.	.	.	.	.	.	.	16gg\JJ 16g\	.	.	.	.	.	.	.	.	.	.	.	.	.	.	.	.	.	.	.	.	.	.	.	.	.
*	*	*Xrep	*	*Xrep	*	*Xrep	*	*Xrep	*	*	*	*Xrep	*Xrep	*	*Xrep	*	*Xrep	*Xrep	*	*Xrep	*	*	*	*	*	*	*	*	*	*	*	*	*	*	*
=15	=15	=15	=15	=15	=15	=15	=15	=15	=15	=15	=15	=15	=15	=15	=15	=15	=15	=15	=15	=15	=15	=15	=15	=15	=15	=15	=15	=15	=15	=15	=15	=15yy	=15	=15	=15
*	*	*	*	*	*	*	*	*	*	*	*	*rep	*rep	*	*	*	*	*	*	*	*	*	*	*	*	*	*	*	*	*	*	*	*	*	*
2ryy	.	8G\	.	8G\yy	.	8r	.	8r	.	16ffn\LL 16fn\	.	8Ra/	8r	.	8r	.	8G\ 8GG\	8d\ 8B\	.	8r	.	2r	2GG/	4b/	2g\	.	8fn/L	4d\	.	8fn/L	.	8ffn\Lyy	.	8ffn\L	.
.	.	.	.	.	.	.	.	.	.	16ff\ 16f\	.	.	.	.	.	.	.	.	.	.	.	.	.	.	.	.	.	.	.	.	.	.	.	.	.
.	.	8r	.	8ryy	.	8f\ 8G\	.	8g/ 8B/	.	16ddd\ 16dd\	.	8r	8Ree\	.	8GG/	.	8r	8r	.	8b/ 8d/	.	.	.	.	.	.	8dd/	.	.	8dd/	.	8ddd\yy	.	8ddd\	.
.	.	.	.	.	.	.	.	.	.	16ddd\ 16dd\	.	.	.	.	.	.	.	.	.	.	.	.	.	.	.	.	.	.	.	.	.	.	.	.	.
.	.	8GG/	.	8GG/yy	.	8r	.	8r	.	16gg\ 16g\	.	8Ra/	8r	.	8r	.	8G\ 8GG\	8d\ 8B\	.	8r	.	.	.	4dd/	.	.	8g/	4f\	.	8g/	.	8gg\yy	.	8gg\	.
.	.	.	.	.	.	.	.	.	.	16gg\ 16g\	.	.	.	.	.	.	.	.	.	.	.	.	.	.	.	.	.	.	.	.	.	.	.	.	.
.	.	8r	.	8ryy	.	8f\ 8G\	.	8g/ 8d/	.	16bb\ 16b\	.	8r	8Ree\	.	8GG/	.	8r	8r	.	8dd/ 8f/	.	.	.	.	.	.	8b/J	.	.	8b/J	.	8bb\Jyy	.	8bb\J	.
.	.	.	.	.	.	.	.	.	.	16bb\JJ 16b\	.	.	.	.	.	.	.	.	.	.	.	.	.	.	.	.	.	.	.	.	.	.	.	.	.
*	*	*	*	*	*	*	*	*	*	*	*	*Xrep	*Xrep	*	*	*	*	*	*	*	*	*	*	*	*	*	*	*	*	*	*	*	*	*	*
=16	=16	=16	=16	=16	=16	=16	=16	=16	=16	=16	=16	=16	=16	=16	=16	=16	=16	=16	=16	=16	=16	=16	=16	=16	=16	=16	=16	=16	=16	=16	=16	=16	=16	=16	=16
!	!	!	!	!	!	!	!	!	!	!	!	!	!	!	!	!	!	!	!	!	!	!	!	!	!	!	!	!	!	!	!	!	!	!LO:TX:i:t=D.	!
2ryy	.	8C/	.	8C/yy	.	8e\ 8G\	.	8g/ 8c/	.	8ccc\ 8cc\	.	8Ra/	8Ree\	.	8C/	.	8G\ 8C\	8e\ 8c\	.	8cc/ 8e/	.	4r	8C/	8cc/	8g\	.	8cc/	8e\	.	8cc\	.	8ccc\yy	.	8ccc\	.
.	.	8r	.	8ryy	.	8r	.	8r	.	8r	.	8r	8r	.	8r	.	8r	8r	.	8r	.	.	8r	8r	8ryy	.	8r	8r	.	8r	.	8ryy	.	8r	.
.	.	4C/	.	4C/yy	.	4e/ 4G/ 4C/	.	4ee\ 4cc\ 4g\ 4c\	.	4ccc\ 4ee\ 4g\	.	4Ra/	4Ree\	.	4C/	.	4G\ 4C\	4e\ 4c\	.	4cc/ 4e/	.	4g/	4C/	4cc/	4g\	.	4ee/	4cc\	.	4gg\	.	4ccc\yy	.	4ccc\	.
*	*	*	*	*	*	*	*	*	*	*	*	*	*	*	*	*	*	*	*	*	*	*	*	*v	*v	*	*	*	*	*	*	*	*	*	*
*	*	*	*	*	*	*	*	*	*	*	*	*	*	*	*	*	*	*	*	*	*	*	*	*	*	*v	*v	*	*	*	*	*	*	*
=17!|:	=17!|:	=17!|:	=17!|:	=17!|:	=17!|:	=17!|:	=17!|:	=17!|:	=17!|:	=17!|:	=17!|:	=17!|:	=17!|:	=17!|:	=17!|:	=17!|:	=17!|:	=17!|:	=17!|:	=17!|:	=17!|:	=17!|:	=17!|:	=17!|:	=17!|:	=17!|:	=17!|:	=17!|:	=17!|:	=17!|:	=17!|:	=17!|:	=17!|:
*>B	*	*>B	*	*>B	*	*>B	*	*>B	*	*>B	*	*>B	*>B	*	*>B	*	*>B	*>B	*	*>B	*	*>B	*>B	*>B	*	*>B	*	*>B	*	*>B	*	*>B	*
2ryy	.	8C/	p	8C/yy	py	8r	.	8r	p	2r	.	2r	2r	.	2r	.	2r	2r	.	2r	.	8a'/L	2r	2r	.	2r	.	2r	.	2r	.	2r	.
.	.	8r	.	8ryy	.	8f\	.	8a/ 8c/	.	.	.	.	.	.	.	.	.	.	.	.	.	(8b/	.	.	.	.	.	.	.	.	.	.	.
.	.	8C/	.	8C/yy	.	8r	.	8r	.	.	.	.	.	.	.	.	.	.	.	.	.	8cc/)	.	.	.	.	.	.	.	.	.	.	.
.	.	8r	.	8ryy	.	8f\	.	8a/ 8c/	.	.	.	.	.	.	.	.	.	.	.	.	.	8a'/J	.	.	.	.	.	.	.	.	.	.	.
=18	=18	=18	=18	=18	=18	=18	=18	=18	=18	=18	=18	=18	=18	=18	=18	=18	=18	=18	=18	=18	=18	=18	=18	=18	=18	=18	=18	=18	=18	=18	=18	=18	=18
2ryy	.	8C/	.	8C/yy	.	8r	.	8r	.	2r	.	2r	2r	.	2r	.	2r	2r	.	2r	.	8g'/L	2r	2r	.	2r	.	2r	.	2r	.	2r	.
.	.	8r	.	8ryy	.	8e\	.	8g/ 8c/	.	.	.	.	.	.	.	.	.	.	.	.	.	(8b/	.	.	.	.	.	.	.	.	.	.	.
.	.	8C/	.	8C/yy	.	8r	.	8r	.	.	.	.	.	.	.	.	.	.	.	.	.	8cc/)	.	.	.	.	.	.	.	.	.	.	.
.	.	8r	.	8ryy	.	8e\	.	8g/ 8c/	.	.	.	.	.	.	.	.	.	.	.	.	.	8g'/J	.	.	.	.	.	.	.	.	.	.	.
!!LO:PB:g=original
=19	=19	=19	=19	=19	=19	=19	=19	=19	=19	=19	=19	=19	=19	=19	=19	=19	=19	=19	=19	=19	=19	=19	=19	=19	=19	=19	=19	=19	=19	=19	=19	=19	=19
2ryy	.	8GG/	.	8GG/yy	.	8r	.	8r	.	2r	.	2r	2r	.	2r	.	2r	2r	.	2r	.	8f'/L	2r	2r	.	2r	.	2r	.	2r	.	2r	.
.	.	8r	.	8ryy	.	8B/	.	8f/ 8G/	.	.	.	.	.	.	.	.	.	.	.	.	.	(8dd/	.	.	.	.	.	.	.	.	.	.	.
.	.	8GG/	.	8GG/yy	.	8r	.	8r	.	.	.	.	.	.	.	.	.	.	.	.	.	8b/)	.	.	.	.	.	.	.	.	.	.	.
.	.	8r	.	8ryy	.	8B/	.	8d/ 8G/	.	.	.	.	.	.	.	.	.	.	.	.	.	8f'/J	.	.	.	.	.	.	.	.	.	.	.
=20	=20	=20	=20	=20	=20	=20	=20	=20	=20	=20	=20	=20	=20	=20	=20	=20	=20	=20	=20	=20	=20	=20	=20	=20	=20	=20	=20	=20	=20	=20	=20	=20	=20
2ryy	.	8C/	.	8C/yy	.	8r	.	8r	.	2r	.	2ryy	2ryy	.	2ryy	.	2ryy	2ryy	.	2ryy	.	8e'/L	2r	2r	.	2r	.	2r	.	2r	.	2r	.
.	.	8r	.	8ryy	.	8c\	.	8e/ 8G/	.	.	.	.	.	.	.	.	.	.	.	.	.	8g'/J	.	.	.	.	.	.	.	.	.	.	.
.	.	8C/	.	8C/yy	.	8r	.	8r	.	.	.	.	.	.	.	.	.	.	.	.	.	(8b/L	.	.	.	.	.	.	.	.	.	.	.
.	.	8r	.	8ryy	.	8c\	.	8e/ 8G/	.	.	.	.	.	.	.	.	.	.	.	.	.	8cc/J)	.	.	.	.	.	.	.	.	.	.	.
=21	=21	=21	=21	=21	=21	=21	=21	=21	=21	=21	=21	=21	=21	=21	=21	=21	=21	=21	=21	=21	=21	=21	=21	=21	=21	=21	=21	=21	=21	=21	=21	=21	=21
*	*	*	*	*	*	*	*	*	*	*	*	*	*	*	*	*	*	*	*	*	*	*	*	*^	*	*	*	*	*	*	*	*	*
*	*	*rep	*	*repy	*	*rep	*	*	*	*	*	*	*	*	*	*	*	*	*	*	*	*	*2\right	*	*	*	*	*	*	*	*	*	*	*
2ryy	.	8C/	.	8C/yy	.	8r	.	8r	.	2r	.	2ryy	2ryy	.	2ryy	.	2ryy	2ryy	.	2ryy	.	8a'/L	2A\	(2ff/	2cc\	p	2r	.	2r	.	2r	.	2r	.
.	.	8r	.	8ryy	.	8c\	.	8f/ 8A/	.	.	.	.	.	.	.	.	.	.	.	.	.	(8b/	.	.	.	.	.	.	.	.	.	.	.	.
.	.	8C/	.	8C/yy	.	8r	.	8r	.	.	.	.	.	.	.	.	.	.	.	.	.	8cc/)	.	.	.	.	.	.	.	.	.	.	.	.
.	.	8r	.	8ryy	.	8c\	.	8f/ 8A/	.	.	.	.	.	.	.	.	.	.	.	.	.	8a'/J	.	.	.	.	.	.	.	.	.	.	.	.
*	*	*Xrep	*	*Xrep	*	*Xrep	*	*	*	*	*	*	*	*	*	*	*	*	*	*	*	*	*	*	*	*	*	*	*	*	*	*	*	*
=22	=22	=22	=22	=22	=22	=22	=22	=22	=22	=22	=22	=22	=22	=22	=22	=22	=22	=22	=22	=22	=22	=22	=22	=22	=22	=22	=22	=22	=22	=22	=22	=22	=22	=22
*	*	*rep	*	*repy	*	*rep	*	*	*	*	*	*	*	*	*	*	*	*	*	*	*	*	*	*	*	*	*	*	*	*	*	*	*	*
2ryy	.	8C/	.	8C/yy	.	8r	.	8r	.	2r	.	2ryy	2ryy	.	2ryy	.	2ryy	2ryy	.	2ryy	.	8g'/L	2G\	2ee/)	2cc\	.	2r	.	2r	.	2r	.	2r	.
.	.	8r	.	8ryy	.	8c\	.	8e/ 8G/	.	.	.	.	.	.	.	.	.	.	.	.	.	(8b/	.	.	.	.	.	.	.	.	.	.	.	.
.	.	8C/	.	8C/yy	.	8r	.	8r	.	.	.	.	.	.	.	.	.	.	.	.	.	8cc/)	.	.	.	.	.	.	.	.	.	.	.	.
.	.	8r	.	8ryy	.	8c\	.	8e/ 8G/	.	.	.	.	.	.	.	.	.	.	.	.	.	8g'/J	.	.	.	.	.	.	.	.	.	.	.	.
*	*	*Xrep	*	*Xrep	*	*Xrep	*	*	*	*	*	*	*	*	*	*	*	*	*	*	*	*	*	*	*	*	*	*	*	*	*	*	*	*
=23	=23	=23	=23	=23	=23	=23	=23	=23	=23	=23	=23	=23	=23	=23	=23	=23	=23	=23	=23	=23	=23	=23	=23	=23	=23	=23	=23	=23	=23	=23	=23	=23	=23	=23
*	*	*	*	*	*	*	*	*	*	*	*	*	*	*	*	*	*	*	*	*	*	*	*	*	*	*	*^	*	*	*	*	*	*	*
2ryy	.	8D\	.	8D\yy	.	8r	.	8r	.	2r	.	2ryy	2ryy	.	2ryy	.	2ryy	2ryy	.	2ryy	.	8f#X'/L	4A\	2dd/	2cc\	.	4r	2f#X\	.	2r	.	2r	.	2r	.
.	.	8r	.	8ryy	.	8d\ 8A\	.	8f#X/ 8c/	.	.	.	.	.	.	.	.	.	.	.	.	.	(8ee/	.	.	.	.	.	.	.	.	.	.	.	.	.
.	.	8D\	.	8D\yy	.	8r	.	8r	.	.	.	.	.	.	.	.	.	.	.	.	.	8dd/)	4D\	.	.	.	4a/	.	.	.	.	.	.	.	.
.	.	8r	.	8ryy	.	8d\ 8A\	.	8f#/ 8c/	.	.	.	.	.	.	.	.	.	.	.	.	.	8cc'/J	.	.	.	.	.	.	.	.	.	.	.	.	.
*	*	*	*	*	*	*	*	*	*	*	*	*	*	*	*	*	*	*	*	*	*	*	*	*v	*v	*	*	*	*	*	*	*	*	*	*
*	*	*	*	*	*	*	*	*	*	*	*	*	*	*	*	*	*	*	*	*	*	*	*	*	*	*v	*v	*	*	*	*	*	*	*
=24	=24	=24	=24	=24	=24	=24	=24	=24	=24	=24	=24	=24	=24	=24	=24	=24	=24	=24	=24	=24	=24	=24	=24	=24	=24	=24	=24	=24	=24	=24	=24	=24	=24
2ryy	.	8G\L	.	8G\Lyy	.	8r	.	8r	.	4r	.	2ryy	2ryy	.	2ryy	.	2ryy	2ryy	.	2ryy	.	8b/L	8G\L	8dd/L 8g/	.	8b/L 8g/	.	4r	.	4r	.	4r	.
.	.	8D\	.	8D\yy	.	8d/L 8G/	.	8f#X/L 8c/	.	.	.	.	.	.	.	.	.	.	.	.	.	8a/	8D\	8dd/ 8cc/	.	8a/ 8f#X/	.	.	.	.	.	.	.
.	.	8G\J	.	8G\Jyy	.	8d/J 8G/	.	8g/J 8B/	.	(8gg\L 8g\	.	.	.	.	.	.	.	.	.	.	.	8g/J	8G\J	8dd/J 8g/	.	8b/J 8g/	.	8g/L	.	(8gg\L	.	(8gg\L	.
.	.	8r	.	8ryy	.	8r	.	8r	.	32aa\LL 32a\	.	.	.	.	.	.	.	.	.	.	.	8r	8r	8r	.	32a/LLL	.	(32a/LL	.	32aa\LL	.	32aa\LL	.
.	.	.	.	.	.	.	.	.	.	32bb\ 32b\	.	.	.	.	.	.	.	.	.	.	.	.	.	.	.	32b/	.	32b/	.	32bb\	.	32bb\	.
.	.	.	.	.	.	.	.	.	.	32ccc\ 32cc\	.	.	.	.	.	.	.	.	.	.	.	.	.	.	.	32cc/	.	32cc/	.	32ccc\	.	32ccc\	.
.	.	.	.	.	.	.	.	.	.	32ddd\JJJ 32dd\)	.	.	.	.	.	.	.	.	.	.	.	.	.	.	.	32dd/JJJ	.	32dd/JJJ	.	32ddd\JJJ	.	32ddd\JJJ	.
!!LO:PB:g=original
=25	=25	=25	=25	=25	=25	=25	=25	=25	=25	=25	=25	=25	=25	=25	=25	=25	=25	=25	=25	=25	=25	=25	=25	=25	=25	=25	=25	=25	=25	=25	=25	=25	=25
*	*	*	*	*	*	*	*	*	*	*	*	*	*	*	*	*	*	*	*	*	*	*	*	*^	*	*^	*	*	*	*	*	*	*
!	!	!	!LO:DY:rj	!	!LO:DY:rj	!	!	!	!LO:DY:rj	!	!	!	!	!	!	!LO:DY:rj	!	!	!	!	!	!	!	!	!	!	!	!	!LO:DY:rj	!	!	!LO:TX:a:t=col Fl	!LO:DY:rj	!LO:TX:a:t=Skopiowany odcinek C (takty 9-14)	!LO:DY:rj
2r	.	8C/	f	8C/yy	fy	8r	.	8r	f	16eee\LL 16ee\	.	8Ra/	8r	f	8r	f	8G\ 8C\	8e\ 8c\	f	8r	.	2r	[2C/	[2cc/	[2g\	.	8ee/L	2e\	f	8ee\L)	.	8eee\L)yy	f	8eee\L)	f
.	.	.	.	.	.	.	.	.	.	16eee\ 16ee\	.	.	.	.	.	.	.	.	.	.	.	.	.	.	.	.	.	.	.	.	.	.	.	.	.
.	.	8r	.	8ryy	.	8e/ 8G/	.	8g/ 8c/	.	16bb\ 16b\	.	8r	8Ree\	.	8C/	.	8r	8r	.	8g/ 8e/	.	.	.	.	.	.	8b/	.	.	8b\	.	8bb\yy	.	8bb\	.
.	.	.	.	.	.	.	.	.	.	16bb\ 16b\	.	.	.	.	.	.	.	.	.	.	.	.	.	.	.	.	.	.	.	.	.	.	.	.	.
.	.	8C/	.	8C/yy	.	8r	.	8r	.	16ccc\ 16cc\	.	8Ra/	8r	.	8r	.	8G\ 8C\	8e\ 8c\	.	8r	.	.	.	.	.	.	8cc/	.	.	8cc\	.	8ccc\yy	.	8ccc\	.
.	.	.	.	.	.	.	.	.	.	16ccc\ 16cc\	.	.	.	.	.	.	.	.	.	.	.	.	.	.	.	.	.	.	.	.	.	.	.	.	.
.	.	8r	.	8ryy	.	8e/ 8G/	.	8g/ 8c/	.	16gg\ 16g\	.	8r	8Ree\	.	8C/	.	8r	8r	.	8g/ 8e/	.	.	.	.	.	.	8g/J	.	.	8g\J	.	8gg\Jyy	.	8gg\J	.
.	.	.	.	.	.	.	.	.	.	16gg\JJ 16g\	.	.	.	.	.	.	.	.	.	.	.	.	.	.	.	.	.	.	.	.	.	.	.	.	.
=26	=26	=26	=26	=26	=26	=26	=26	=26	=26	=26	=26	=26	=26	=26	=26	=26	=26	=26	=26	=26	=26	=26	=26	=26	=26	=26	=26	=26	=26	=26	=26	=26	=26	=26	=26
2r	.	8C/	.	8C/yy	.	8r	.	8r	.	16aa\LL 16a\	.	8Ra/	8r	.	8r	.	8G\ 8C\	8e\ 8c\	.	8r	.	2r	2C/]	2cc/]	2g\]	.	8a/L	2e\	.	8a/L	.	8aa\Lyy	.	8aa\L	.
.	.	.	.	.	.	.	.	.	.	16aa\ 16a\	.	.	.	.	.	.	.	.	.	.	.	.	.	.	.	.	.	.	.	.	.	.	.	.	.
.	.	8r	.	8ryy	.	8e/ 8G/	.	8g/ 8c/	.	16gg\ 16g\	.	8r	8Ree\	.	8C/	.	8r	8r	.	8g/ 8e/	.	.	.	.	.	.	8g/	.	.	8g/	.	8gg\yy	.	8gg\	.
.	.	.	.	.	.	.	.	.	.	16gg\ 16g\	.	.	.	.	.	.	.	.	.	.	.	.	.	.	.	.	.	.	.	.	.	.	.	.	.
.	.	8C/	.	8C/yy	.	8r	.	8r	.	16ff#X\ 16f#X\	.	8Ra/	8r	.	8r	.	8G\ 8C\	8e\ 8c\	.	8r	.	.	.	.	.	.	8f#X/	.	.	8f#X/	.	8ff#X\yy	.	8ff#X\	.
.	.	.	.	.	.	.	.	.	.	16ff#\ 16f#\	.	.	.	.	.	.	.	.	.	.	.	.	.	.	.	.	.	.	.	.	.	.	.	.	.
.	.	8r	.	8ryy	.	8e/ 8G/	.	8g/ 8c/	.	16gg\ 16g\	.	8r	8Ree\	.	8C/	.	8r	8r	.	8g/ 8e/	.	.	.	.	.	.	8g/J	.	.	8g/J	.	8gg\Jyy	.	8gg\J	.
.	.	.	.	.	.	.	.	.	.	16gg\JJ 16g\	.	.	.	.	.	.	.	.	.	.	.	.	.	.	.	.	.	.	.	.	.	.	.	.	.
=27	=27	=27	=27	=27	=27	=27	=27	=27	=27	=27	=27	=27	=27	=27	=27	=27	=27	=27	=27	=27	=27	=27	=27	=27	=27	=27	=27	=27	=27	=27	=27	=27	=27	=27	=27
2r	.	8GG/	.	8GG/yy	.	8r	.	8r	.	16ffn\LL 16fn\	.	8Ra/	8r	.	8r	.	8G\ 8GG\	8d\ 8B\	.	8r	.	2r	2GG/	2b/	2g\	.	8fn/L	2d\	.	8fn/L	.	8ffn\Lyy	.	8ffn\L	.
.	.	.	.	.	.	.	.	.	.	16ff\ 16f\	.	.	.	.	.	.	.	.	.	.	.	.	.	.	.	.	.	.	.	.	.	.	.	.	.
.	.	8r	.	8ryy	.	8f\ 8G\	.	8g/ 8B/	.	16ddd\ 16dd\	.	8r	8Ree\	.	8GG/	.	8r	8r	.	8b/ 8d/	.	.	.	.	.	.	8dd/	.	.	8dd/	.	8ddd\yy	.	8ddd\	.
.	.	.	.	.	.	.	.	.	.	16ddd\ 16dd\	.	.	.	.	.	.	.	.	.	.	.	.	.	.	.	.	.	.	.	.	.	.	.	.	.
.	.	8GG/	.	8GG/yy	.	8r	.	8r	.	16bb\ 16b\	.	8Ra/	8r	.	8r	.	8G\ 8GG\	8f\ 8d\	.	8r	.	.	.	.	.	.	8b/	.	.	8b/	.	8bb\yy	.	8bb\	.
.	.	.	.	.	.	.	.	.	.	16bb\ 16b\	.	.	.	.	.	.	.	.	.	.	.	.	.	.	.	.	.	.	.	.	.	.	.	.	.
.	.	8r	.	8ryy	.	8f\ 8G\	.	8g/ 8B/	.	16ff\ 16f\	.	8r	8Ree\	.	8GG/	.	8r	8r	.	8b/ 8d/	.	.	.	.	.	.	8f/J	.	.	8f/J	.	8ff\Jyy	.	8ff\J	.
.	.	.	.	.	.	.	.	.	.	16ff\JJ 16f\	.	.	.	.	.	.	.	.	.	.	.	.	.	.	.	.	.	.	.	.	.	.	.	.	.
=28	=28	=28	=28	=28	=28	=28	=28	=28	=28	=28	=28	=28	=28	=28	=28	=28	=28	=28	=28	=28	=28	=28	=28	=28	=28	=28	=28	=28	=28	=28	=28	=28	=28	=28	=28
2r	.	8C/	.	8C/yy	.	8r	.	8r	.	16ee\LL 16e\	.	8Ra/	8r	.	8r	.	8G\ 8C\	8e\ 8c\	.	8r	.	2r	2C/	2cc/	2g\	.	8e/L	2e\	.	8e'/L	.	8ee'\Lyy	.	8ee'\L	.
.	.	.	.	.	.	.	.	.	.	16ee\ 16e\	.	.	.	.	.	.	.	.	.	.	.	.	.	.	.	.	.	.	.	.	.	.	.	.	.
.	.	8r	.	8ryy	.	8e\ 8G\	.	8g/ 8c/	.	16gg\ 16g\	.	8r	8Ree\	.	8C/	.	8r	8r	.	8cc/ 8e/	.	.	.	.	.	.	8g/	.	.	8g'/	.	8gg'\yy	.	8gg'\	.
.	.	.	.	.	.	.	.	.	.	16gg\ 16g\	.	.	.	.	.	.	.	.	.	.	.	.	.	.	.	.	.	.	.	.	.	.	.	.	.
.	.	8C/	.	8C/yy	.	8r	.	8r	.	16bb\ 16b\	.	8Ra/	8r	.	8r	.	8G\ 8C\	8e\ 8c\	.	8r	.	.	.	.	.	.	8b/	.	.	(8b/	.	(8bb\yy	.	(8bb\	.
.	.	.	.	.	.	.	.	.	.	16bb\ 16b\	.	.	.	.	.	.	.	.	.	.	.	.	.	.	.	.	.	.	.	.	.	.	.	.	.
.	.	8r	.	8ryy	.	8e\ 8G\	.	8g/ 8c/	.	16ccc\ 16cc\	.	8r	8Ree\	.	8C/	.	8r	8r	.	8cc/ 8e/	.	.	.	.	.	.	8cc/J	.	.	8cc/J)	.	8ccc\J)yy	.	8ccc\J)	.
.	.	.	.	.	.	.	.	.	.	16ccc\JJ 16cc\	.	.	.	.	.	.	.	.	.	.	.	.	.	.	.	.	.	.	.	.	.	.	.	.	.
=29	=29	=29	=29	=29	=29	=29	=29	=29	=29	=29	=29	=29	=29	=29	=29	=29	=29	=29	=29	=29	=29	=29	=29	=29	=29	=29	=29	=29	=29	=29	=29	=29	=29	=29	=29
2r	.	8C/	.	8C/yy	.	8r	.	8r	.	16eee\LL 16ee\	.	8Ra/	8r	.	8r	.	8G\ 8C\	8e\ 8c\	.	8r	.	2r	2C/	2cc/	2g\	.	8ee/L	2e\	.	8ee\L	.	8eee\Lyy	.	8eee\L	.
.	.	.	.	.	.	.	.	.	.	16eee\ 16ee\	.	.	.	.	.	.	.	.	.	.	.	.	.	.	.	.	.	.	.	.	.	.	.	.	.
.	.	8r	.	8ryy	.	8e\ 8G\	.	8g/ 8c/	.	16bb\ 16b\	.	8r	8Ree\	.	8C/	.	8r	8r	.	8g/ 8e/	.	.	.	.	.	.	8b/	.	.	8b\	.	8bb\yy	.	8bb\	.
.	.	.	.	.	.	.	.	.	.	16bb\ 16b\	.	.	.	.	.	.	.	.	.	.	.	.	.	.	.	.	.	.	.	.	.	.	.	.	.
.	.	8C/	.	8C/yy	.	8r	.	8r	.	16ccc\ 16cc\	.	8Ra/	8r	.	8r	.	8G\ 8C\	8e\ 8c\	.	8r	.	.	.	.	.	.	8cc/	.	.	8cc\	.	8ccc\yy	.	8ccc\	.
.	.	.	.	.	.	.	.	.	.	16ccc\ 16cc\	.	.	.	.	.	.	.	.	.	.	.	.	.	.	.	.	.	.	.	.	.	.	.	.	.
.	.	8r	.	8ryy	.	8e\ 8G\	.	8g/ 8c/	.	16gg\ 16g\	.	8r	8Ree\	.	8C/	.	8r	8r	.	8g/ 8e/	.	.	.	.	.	.	8g/J	.	.	8g\J	.	8gg\Jyy	.	8gg\J	.
.	.	.	.	.	.	.	.	.	.	16gg\JJ 16g\	.	.	.	.	.	.	.	.	.	.	.	.	.	.	.	.	.	.	.	.	.	.	.	.	.
=30	=30	=30	=30	=30	=30	=30	=30	=30	=30	=30	=30	=30	=30	=30	=30	=30	=30	=30	=30	=30	=30	=30	=30	=30	=30	=30	=30	=30	=30	=30	=30	=30	=30	=30	=30
2r	.	8C/	.	8C/yy	.	8r	.	8r	.	16aa\LL 16a\	.	8Ra/	8r	.	8r	.	8G\ 8C\	8e\ 8c\	.	8r	.	2r	2C/	2cc/	2g\	.	8a/L	2e\	.	8a/L	.	8aa\Lyy	.	8aa\L	.
.	.	.	.	.	.	.	.	.	.	16aa\ 16a\	.	.	.	.	.	.	.	.	.	.	.	.	.	.	.	.	.	.	.	.	.	.	.	.	.
.	.	8r	.	8ryy	.	8e\ 8G\	.	8g/ 8c/	.	16gg\ 16g\	.	8r	8Ree\	.	8C/	.	8r	8r	.	8g/ 8e/	.	.	.	.	.	.	8g/	.	.	8g/	.	8gg\yy	.	8gg\	.
.	.	.	.	.	.	.	.	.	.	16gg\ 16g\	.	.	.	.	.	.	.	.	.	.	.	.	.	.	.	.	.	.	.	.	.	.	.	.	.
.	.	8C/	.	8C/yy	.	8r	.	8r	.	16ff#X\ 16f#X\	.	8Ra/	8r	.	8r	.	8G\ 8C\	8e\ 8c\	.	8r	.	.	.	.	.	.	8f#X/	.	.	8f#X/	.	8ff#X\yy	.	8ff#X\	.
.	.	.	.	.	.	.	.	.	.	16ff#\ 16f#\	.	.	.	.	.	.	.	.	.	.	.	.	.	.	.	.	.	.	.	.	.	.	.	.	.
.	.	8r	.	8ryy	.	8e\ 8G\	.	8g/ 8c/	.	16gg\ 16g\	.	8r	8Ree\	.	8C/	.	8r	8r	.	8g/ 8e/	.	.	.	.	.	.	8g/J	.	.	8g/J	.	8gg\Jyy	.	8gg\J	.
.	.	.	.	.	.	.	.	.	.	16gg\JJ 16g\	.	.	.	.	.	.	.	.	.	.	.	.	.	.	.	.	.	.	.	.	.	.	.	.	.
!!LO:PB:g=original
=31	=31	=31	=31	=31	=31	=31	=31	=31	=31	=31	=31	=31	=31	=31	=31	=31	=31	=31	=31	=31	=31	=31	=31	=31	=31	=31	=31	=31	=31	=31	=31	=31	=31	=31	=31
2ryy	.	8G\	.	8G\yy	.	8r	.	8r	.	2r	.	8Ra/	8r	.	8r	.	8G\ 8GG\	8d\ 8B\	.	8r	.	2r	2GG/	4b/	2g\	.	8fn/L	4d\	.	8fn/L	.	8ffn\L	.	8ffn\L	.
.	.	8r	.	8ryy	.	8f\ 8G\	.	8g/ 8B/	.	.	.	8r	8Ree\	.	8GG/	.	8r	8r	.	8b/ 8d/	.	.	.	.	.	.	8dd/	.	.	8dd/	.	8ddd\	.	8ddd\	.
.	.	8GG/	.	8GG/yy	.	8r	.	8r	.	.	.	8Ra/	8r	.	8r	.	8G\ 8GG\	8d\ 8B\	.	8r	.	.	.	4dd/	.	.	8g/	4f\	.	8g/	.	8gg\	.	8gg\	.
.	.	8r	.	8ryy	.	8f\ 8G\	.	8g/ 8d/	.	.	.	8r	8Ree\	.	8GG/	.	8r	8r	.	8dd/ 8f/	.	.	.	.	.	.	8b/J	.	.	8b/J	.	8bb\J	.	8bb\J	.
*	*	*	*	*	*	*	*	*	*	*	*	*	*	*	*	*	*	*	*	*	*	*	*	*v	*v	*	*	*	*	*	*	*	*	*	*
*	*	*	*	*	*	*	*	*	*	*	*	*	*	*	*	*	*	*	*	*	*	*	*	*	*	*v	*v	*	*	*	*	*	*	*
=32	=32	=32	=32	=32	=32	=32	=32	=32	=32	=32	=32	=32	=32	=32	=32	=32	=32	=32	=32	=32	=32	=32	=32	=32	=32	=32	=32	=32	=32	=32	=32	=32	=32
!LO:TX:t=1ma	!	!	!	!	!	!	!	!	!	!	!	!	!	!	!	!	!	!	!	!	!	!	!	!	!	!	!	!	!	!	!	!	!
*>B1	*	*>B1	*	*>B1	*	*>B1	*	*>B1	*	*>B1	*	*>B1	*>B1	*	*>B1	*	*>B1	*>B1	*	*>B1	*	*>B1	*>B1	*>B1	*	*>B1	*	*>B1	*	*>B1	*	*>B1	*
2ryy	.	8C/	.	8C/yy	.	8e/ 8G/	.	8g/ 8c/	.	8ccc\ 8cc\	.	8Ra/	8Ree\	.	8C/	.	8G\ 8C\	8e\ 8c\	.	8cc/ 8e/	.	4r	8C/	8cc/ 8g/	.	8cc/ 8e/	.	8cc\	.	8ccc\	.	8ccc\	.
.	.	8r	.	8ryy	.	8r	.	8r	.	8r	.	8r	8r	.	8r	.	8r	8r	.	8r	.	.	8r	8r	.	8r	.	8r	.	8r	.	8r	.
.	.	4C/	.	4C/yy	.	4e/ 4G/ 4C/	.	4g/ 4c/	.	4ccc\ 4ee\ 4g\	.	4Ra/	4Ree\	.	4C/	.	4G\ 4C\	4e\ 4c\	.	4cc/ 4e/	.	4g/	4C/	4cc/ 4g/	.	4ee\ 4cc\	.	4gg\	.	4ccc\	.	4ccc\	.
=33:|!|:	=33:|!|:	=33:|!|:	=33:|!|:	=33:|!|:	=33:|!|:	=33:|!|:	=33:|!|:	=33:|!|:	=33:|!|:	=33:|!|:	=33:|!|:	=33:|!|:	=33:|!|:	=33:|!|:	=33:|!|:	=33:|!|:	=33:|!|:	=33:|!|:	=33:|!|:	=33:|!|:	=33:|!|:	=33:|!|:	=33:|!|:	=33:|!|:	=33:|!|:	=33:|!|:	=33:|!|:	=33:|!|:	=33:|!|:	=33:|!|:	=33:|!|:	=33:|!|:	=33:|!|:
!LO:TX:t=2da	!	!	!	!	!	!	!	!	!	!	!	!	!	!	!	!	!	!	!	!	!	!	!	!	!	!	!	!	!	!	!	!	!
*>B2	*	*>B2	*	*>B2	*	*>B2	*	*>B2	*	*>B2	*	*>B2	*>B2	*	*>B2	*	*>B2	*>B2	*	*>B2	*	*>B2	*>B2	*>B2	*	*>B2	*	*>B2	*	*>B2	*	*>B2	*
*M4/4	*	*M4/4	*	*M4/4	*	*M4/4	*	*M4/4	*	*M4/4	*	*M4/4	*M4/4	*	*M4/4	*	*M4/4	*M4/4	*	*M4/4	*	*M4/4	*M4/4	*M4/4	*	*M4/4	*	*M4/4	*	*M4/4	*	*M4/4	*
*met(c)	*	*met(c)	*	*met(c)	*	*met(c)	*	*met(c)	*	*met(c)	*	*met(c)	*met(c)	*	*met(c)	*	*met(c)	*met(c)	*	*met(c)	*	*met(c)	*met(c)	*met(c)	*	*met(c)	*	*met(c)	*	*met(c)	*	*met(c)	*
!LO:TX:a:t=Tambour	!	!	!	!	!	!	!	!	!	!	!	!	!	!	!	!	!	!	!	!	!	!	!	!	!	!	!	!	!	!	!	!	!
1Rett	ff	8C/	.	8C/yy	.	8e/ 8G/	.	8g/ 8c/	.	8ccc\ 8cc\	.	8Ra/	8Ree\	.	8C/	.	8G\ 8C\	8e\ 8c\	.	8cc/ 8e/	.	8r	8C/	8cc/ 8g/	.	8cc/ 8e/	.	8cc\	.	8ccc\	.	8ccc\	.
.	.	8r	.	8ryy	.	8r	.	8r	.	8r	.	8r	8r	.	8r	.	8r	16C/LL	.	16c/LL	.	16c/LL	8r	8r	.	8r	.	8r	.	8r	.	8r	.
.	.	.	.	.	.	.	.	.	.	.	.	.	.	.	.	.	.	16E/JJ	.	16e/JJ	.	16e/JJ	.	.	.	.	.	.	.	.	.	.	.
.	.	4r	.	4ryy	.	4r	.	4r	.	4r	.	4r	4r	.	4r	.	4r	8G/L	.	8g/L	.	8g/L	4r	4r	.	4r	.	4r	.	4r	.	4r	.
.	.	.	.	.	.	.	.	.	.	.	.	.	.	.	.	.	.	16E/L	.	16e/L	.	16e/L	.	.	.	.	.	.	.	.	.	.	.
.	.	.	.	.	.	.	.	.	.	.	.	.	.	.	.	.	.	16G/JJ	.	16g/JJ	.	16g/JJ	.	.	.	.	.	.	.	.	.	.	.
.	.	8r	.	8ryy	.	8r	.	8r	.	8r	.	2r	8r	.	8r	.	8r	4c\	.	4cc/	.	4cc/	8r	8r	.	8r	.	8r	.	8r	.	8r	.
.	.	16C/LL	.	16C/LLyy	.	16cc\LL 16e\	.	16gg\LL 16cc\	.	16ccc\LL 16ee\	.	.	16Ree\LL	.	16C/LL	.	16C/LL	.	.	.	.	.	16c\LL	16ee\LL 16cc\	.	16ee\LL 16cc\	.	16ccc\LL	.	16ccc\LL	.	16eee\LL	.
.	.	16C/JJ	.	16C/JJyy	.	16cc\JJ 16e\	.	16gg\JJ 16cc\	.	16ccc\JJ 16ee\	.	.	16Ree\JJ	.	16C/JJ	.	16C/JJ	.	.	.	.	.	16c\JJ	16ee\JJ 16cc\	.	16ee\JJ 16cc\	.	16ccc\JJ	.	16ccc\JJ	.	16eee\JJ	.
.	.	8C/L	.	8C/Lyy	.	8cc\L 8e\	.	8gg\L 8cc\	.	8ccc\L 8ee\	.	.	8Ree\L	.	8C/L	.	8C/L	4r	.	4r	.	4r	8c\L	8ee\L 8cc\	.	8ee\L 8cc\	.	8ccc\L	.	8ccc\L	.	8eee\L	.
.	.	8C/J	.	8C/Jyy	.	8cc\J 8e\	.	8gg\J 8cc\	.	8ccc\J 8ee\	.	.	8Ree\J	.	8C/J	.	8C/J	.	.	.	.	.	8c\J	8ee\J 8cc\	.	8ee\J 8cc\	.	8ccc\J	.	8ccc\J	.	8eee\J	.
=34	=34	=34	=34	=34	=34	=34	=34	=34	=34	=34	=34	=34	=34	=34	=34	=34	=34	=34	=34	=34	=34	=34	=34	=34	=34	=34	=34	=34	=34	=34	=34	=34	=34
*>C	*	*>C	*	*>C	*	*>C	*	*>C	*	*>C	*	*>C	*>C	*	*>C	*	*>C	*>C	*	*>C	*	*>C	*>C	*>C	*	*>C	*	*>C	*	*>C	*	*>C	*
1Rettt	.	8AA-X/	.	8AA-X/yy	.	8cc\ 8e-X\	.	8aa-X\ 8cc\	.	8ccc\ 8ee-X\	.	4Ra/	8Ree\	.	8C/	.	8A-X\ 8AA-X\	8r	.	8r	.	8r	8A-X\	8ee-X\ 8cc\	.	8ee-X\ 8cc\	.	8ccc\	.	8ccc\	.	8eee-X\	.
.	.	.	.	.	.	.	.	.	.	.	.	.	.	.	.	.	.	.	.	.	.	.	.	.	.	.	.	.	.	.	.	.	.
.	.	8r	.	8ryy	.	8r	.	8r	.	8r	.	.	8r	.	8r	.	8r	16C/LL	.	16c/LL	.	16c/LL	8r	8r	.	8r	.	8r	.	8r	.	8r	.
.	.	.	.	.	.	.	.	.	.	.	.	.	.	.	.	.	.	16E-X/JJ	.	16e-X/JJ	.	16e-X/JJ	.	.	.	.	.	.	.	.	.	.	.
.	.	4r	.	4ryy	.	4r	.	4r	.	4r	.	4r	4r	.	4r	.	4r	8A-X/L	.	8a-X/L	.	8a-X/L	4r	4r	.	4r	.	4r	.	4r	.	4r	.
.	.	.	.	.	.	.	.	.	.	.	.	.	.	.	.	.	.	.	.	.	.	.	.	.	.	.	.	.	.	.	.	.	.
.	.	.	.	.	.	.	.	.	.	.	.	.	.	.	.	.	.	.	.	.	.	.	.	.	.	.	.	.	.	.	.	.	.
.	.	.	.	.	.	.	.	.	.	.	.	.	.	.	.	.	.	.	.	.	.	.	.	.	.	.	.	.	.	.	.	.	.
.	.	.	.	.	.	.	.	.	.	.	.	.	.	.	.	.	.	16E-/L	.	16e-/L	.	16e-/L	.	.	.	.	.	.	.	.	.	.	.
.	.	.	.	.	.	.	.	.	.	.	.	.	.	.	.	.	.	.	.	.	.	.	.	.	.	.	.	.	.	.	.	.	.
.	.	.	.	.	.	.	.	.	.	.	.	.	.	.	.	.	.	16A-/JJ	.	16a-/JJ	.	16a-/JJ	.	.	.	.	.	.	.	.	.	.	.
.	.	.	.	.	.	.	.	.	.	.	.	.	.	.	.	.	.	.	.	.	.	.	.	.	.	.	.	.	.	.	.	.	.
.	.	8r	.	8ryy	.	8r	.	8r	.	8r	.	2r	8r	.	8r	.	8r	4c/	.	4cc/	.	4cc/	8r	8r	.	8r	.	8r	.	8r	.	8r	.
.	.	.	.	.	.	.	.	.	.	.	.	.	.	.	.	.	.	.	.	.	.	.	.	.	.	.	.	.	.	.	.	.	.
.	.	.	.	.	.	.	.	.	.	.	.	.	.	.	.	.	.	.	.	.	.	.	.	.	.	.	.	.	.	.	.	.	.
.	.	.	.	.	.	.	.	.	.	.	.	.	.	.	.	.	.	.	.	.	.	.	.	.	.	.	.	.	.	.	.	.	.
.	.	16A-X\LL	.	16A-X\LLyy	.	16cc\LL 16e-\	.	16aa-\LL 16cc\	.	16ccc\LL 16ee-\	.	.	16Ree\LL	.	16C/LL	.	16A-X\LL	.	.	.	.	.	16A-\LL	16ee-\LL 16cc\	.	16ee-\LL 16cc\	.	16ccc\LL	.	16ccc\LL	.	16eee-\LL	.
.	.	.	.	.	.	.	.	.	.	.	.	.	.	.	.	.	.	.	.	.	.	.	.	.	.	.	.	.	.	.	.	.	.
.	.	16A-\JJ	.	16A-\JJyy	.	16cc\JJ 16e-\	.	16aa-\JJ 16cc\	.	16ccc\JJ 16ee-\	.	.	16Ree\JJ	.	16C/JJ	.	16A-\JJ	.	.	.	.	.	16A-\JJ	16ee-\JJ 16cc\	.	16ee-\JJ 16cc\	.	16ccc\JJ	.	16ccc\JJ	.	16eee-\JJ	.
.	.	.	.	.	.	.	.	.	.	.	.	.	.	.	.	.	.	.	.	.	.	.	.	.	.	.	.	.	.	.	.	.	.
.	.	8A-\L	.	8A-\Lyy	.	8cc\L 8e-\	.	8aa-\L 8cc\	.	8ccc\L 8ee-\	.	.	8Ree\L	.	8C/L	.	8A-\L	4r	.	4r	.	4r	8A-\L	8ee-\L 8cc\	.	8ee-\L 8cc\	.	8ccc\L	.	8ccc\L	.	8eee-\L	.
.	.	.	.	.	.	.	.	.	.	.	.	.	.	.	.	.	.	.	.	.	.	.	.	.	.	.	.	.	.	.	.	.	.
.	.	.	.	.	.	.	.	.	.	.	.	.	.	.	.	.	.	.	.	.	.	.	.	.	.	.	.	.	.	.	.	.	.
.	.	.	.	.	.	.	.	.	.	.	.	.	.	.	.	.	.	.	.	.	.	.	.	.	.	.	.	.	.	.	.	.	.
.	.	8A-\J	.	8A-\Jyy	.	8cc\J 8e-\	.	8aa-\J 8cc\	.	8ccc\J 8ee-\	.	.	8Ree\J	.	8C/J	.	8A-\J	.	.	.	.	.	8A-\J	8ee-\J 8cc\	.	8ee-\J 8cc\	.	8ccc\J	.	8ccc\J	.	8eee-\J	.
.	.	.	.	.	.	.	.	.	.	.	.	.	.	.	.	.	.	.	.	.	.	.	.	.	.	.	.	.	.	.	.	.	.
.	.	.	.	.	.	.	.	.	.	.	.	.	.	.	.	.	.	.	.	.	.	.	.	.	.	.	.	.	.	.	.	.	.
.	.	.	.	.	.	.	.	.	.	.	.	.	.	.	.	.	.	.	.	.	.	.	.	.	.	.	.	.	.	.	.	.	.
!!LO:PB:g=original
=35	=35	=35	=35	=35	=35	=35	=35	=35	=35	=35	=35	=35	=35	=35	=35	=35	=35	=35	=35	=35	=35	=35	=35	=35	=35	=35	=35	=35	=35	=35	=35	=35	=35
*	*	*	*	*	*	*	*	*	*	*	*	*	*	*	*	*	*	*	*	*	*	*	*	*^	*	*	*	*	*	*	*	*	*
1Rett	.	8F#X\	.	8F#X\yy	.	8cc\ 8e-X\	.	8aan\ 8cc\	.	8ccc\ 8ee-X\	.	4Ra/	8Ree\	.	8C/	.	8F#X\	8r	.	8r	.	8r	8An\	8ee-X/	8cc\	.	8ee-X\ 8cc\	.	8ccc\	.	8aan\	.	8eee-X\	.
.	.	.	.	.	.	.	.	.	.	.	.	.	.	.	.	.	.	.	.	.	.	.	.	.	.	.	.	.	.	.	.	.	.	.
.	.	.	.	.	.	.	.	.	.	.	.	.	.	.	.	.	.	.	.	.	.	.	.	.	.	.	.	.	.	.	.	.	.	.
.	.	.	.	.	.	.	.	.	.	.	.	.	.	.	.	.	.	.	.	.	.	.	.	.	.	.	.	.	.	.	.	.	.	.
.	.	8r	.	8ryy	.	8r	.	8r	.	8r	.	.	8r	.	8r	.	8r	16C/LL	.	16c/LL	.	16c/LL	8r	8r	8ryy	.	8r	.	8r	.	8r	.	8r	.
.	.	.	.	.	.	.	.	.	.	.	.	.	.	.	.	.	.	.	.	.	.	.	.	.	.	.	.	.	.	.	.	.	.	.
.	.	.	.	.	.	.	.	.	.	.	.	.	.	.	.	.	.	16E-X/JJ	.	16e-X/JJ	.	16e-X/JJ	.	.	.	.	.	.	.	.	.	.	.	.
.	.	.	.	.	.	.	.	.	.	.	.	.	.	.	.	.	.	.	.	.	.	.	.	.	.	.	.	.	.	.	.	.	.	.
.	.	4r	.	4ryy	.	4r	.	4r	.	4r	.	4r	4r	.	4r	.	4r	8An/L	.	8an/L	.	8an/L	4r	4r	4ryy	.	4r	.	4r	.	4r	.	4r	.
.	.	.	.	.	.	.	.	.	.	.	.	.	.	.	.	.	.	.	.	.	.	.	.	.	.	.	.	.	.	.	.	.	.	.
.	.	.	.	.	.	.	.	.	.	.	.	.	.	.	.	.	.	.	.	.	.	.	.	.	.	.	.	.	.	.	.	.	.	.
.	.	.	.	.	.	.	.	.	.	.	.	.	.	.	.	.	.	.	.	.	.	.	.	.	.	.	.	.	.	.	.	.	.	.
.	.	.	.	.	.	.	.	.	.	.	.	.	.	.	.	.	.	16F#X/L	.	16f#X/L	.	16f#X/L	.	.	.	.	.	.	.	.	.	.	.	.
.	.	.	.	.	.	.	.	.	.	.	.	.	.	.	.	.	.	.	.	.	.	.	.	.	.	.	.	.	.	.	.	.	.	.
.	.	.	.	.	.	.	.	.	.	.	.	.	.	.	.	.	.	16A/JJ	.	16a/JJ	.	16a/JJ	.	.	.	.	.	.	.	.	.	.	.	.
.	.	.	.	.	.	.	.	.	.	.	.	.	.	.	.	.	.	.	.	.	.	.	.	.	.	.	.	.	.	.	.	.	.	.
.	.	8r	.	8ryy	.	8r	.	8r	.	8r	.	2r	8r	.	8r	.	8r	8c/	.	8cc/	.	8cc\	8r	8r	8ryy	.	8r	.	8r	.	8r	.	8r	.
.	.	.	.	.	.	.	.	.	.	.	.	.	.	.	.	.	.	.	.	.	.	.	.	.	.	.	.	.	.	.	.	.	.	.
.	.	.	.	.	.	.	.	.	.	.	.	.	.	.	.	.	.	.	.	.	.	.	.	.	.	.	.	.	.	.	.	.	.	.
.	.	.	.	.	.	.	.	.	.	.	.	.	.	.	.	.	.	.	.	.	.	.	.	.	.	.	.	.	.	.	.	.	.	.
.	.	16F#\LL	.	16F#\LLyy	.	16cc\LL 16e-\	.	16aa\LL 16cc\	.	16ccc\LL 16ee-\	.	.	16Ree\LL	.	16C/LL	.	16F#\LL	8r	.	8r	.	8r	16A\LL	16ee-\LL 16cc\	16ryy	.	16ee-\LL 16cc\	.	16ccc\LL	.	16aa\LL	.	16eee-\LL	.
.	.	.	.	.	.	.	.	.	.	.	.	.	.	.	.	.	.	.	.	.	.	.	.	.	.	.	.	.	.	.	.	.	.	.
.	.	16F#\JJ	.	16F#\JJyy	.	16cc\JJ 16e-\	.	16aa\JJ 16cc\	.	16ccc\JJ 16ee-\	.	.	16Ree\JJ	.	16C/JJ	.	16F#\JJ	.	.	.	.	.	16A\JJ	16ee-\JJ 16cc\	16ryy	.	16ee-\JJ 16cc\	.	16ccc\JJ	.	16aa\JJ	.	16eee-\JJ	.
.	.	.	.	.	.	.	.	.	.	.	.	.	.	.	.	.	.	.	.	.	.	.	.	.	.	.	.	.	.	.	.	.	.	.
.	.	8F#\L	.	8F#\Lyy	.	8cc\L 8e-\	.	8aa\L 8cc\	.	8ccc\L 8ee-\	.	.	8Ree\L	.	8C/L	.	8F#\L	4r	.	4r	.	4r	8A\L	8ee-\L 8cc\	8ryy	.	8ee-\L 8cc\	.	8ccc\L	.	8aa\L	.	8eee-\L	.
.	.	.	.	.	.	.	.	.	.	.	.	.	.	.	.	.	.	.	.	.	.	.	.	.	.	.	.	.	.	.	.	.	.	.
.	.	.	.	.	.	.	.	.	.	.	.	.	.	.	.	.	.	.	.	.	.	.	.	.	.	.	.	.	.	.	.	.	.	.
.	.	.	.	.	.	.	.	.	.	.	.	.	.	.	.	.	.	.	.	.	.	.	.	.	.	.	.	.	.	.	.	.	.	.
.	.	8F#\J	.	8F#\Jyy	.	8cc\J 8e-\	.	8aa\J 8cc\	.	8ccc\J 8ee-\	.	.	8Ree\J	.	8C/J	.	8F#\J	.	.	.	.	.	8A\J	8ee-\J 8cc\	8ryy	.	8ee-\J 8cc\	.	8ccc\J	.	8aa\J	.	8eee-\J	.
.	.	.	.	.	.	.	.	.	.	.	.	.	.	.	.	.	.	.	.	.	.	.	.	.	.	.	.	.	.	.	.	.	.	.
.	.	.	.	.	.	.	.	.	.	.	.	.	.	.	.	.	.	.	.	.	.	.	.	.	.	.	.	.	.	.	.	.	.	.
.	.	.	.	.	.	.	.	.	.	.	.	.	.	.	.	.	.	.	.	.	.	.	.	.	.	.	.	.	.	.	.	.	.	.
*	*	*	*	*	*	*	*	*	*	*	*	*	*	*	*	*	*	*	*	*	*	*	*	*v	*v	*	*	*	*	*	*	*	*	*
=36	=36	=36	=36	=36	=36	=36	=36	=36	=36	=36	=36	=36	=36	=36	=36	=36	=36	=36	=36	=36	=36	=36	=36	=36	=36	=36	=36	=36	=36	=36	=36	=36	=36
8Re/	.	8G\	.	8G\yy	.	8cc\ 8en\ 8G\	.	8gg\ 8cc\	.	8ccc\ 8een\	.	8Ra/	8Ree\	.	8C/	.	8G\	8en\ 8c\	.	8cc/ 8en/	.	16gg\LL	8G\	8een\ 8cc\	.	8een\ 8cc\	.	8ccc\	.	8gg\	.	8eeen\	.
.	.	.	.	.	.	.	.	.	.	.	.	.	.	.	.	.	.	.	.	.	.	16ffn\	.	.	.	.	.	.	.	.	.	.	.
8r	.	8r	.	8ryy	.	8r	.	8r	.	8r	.	8r	8r	.	8r	.	8r	8r	.	8r	.	16ee\	8r	8r	.	8r	.	8r	.	8r	.	8r	.
.	.	.	.	.	.	.	.	.	.	.	.	.	.	.	.	.	.	.	.	.	.	16dd\JJ	.	.	.	.	.	.	.	.	.	.	.
4r	.	4r	.	4ryy	.	4r	.	4r	.	4r	.	4r	4r	.	4r	.	4r	4r	.	4r	.	16cc/LL	4r	4r	.	4r	.	4r	.	4r	.	4r	.
.	.	.	.	.	.	.	.	.	.	.	.	.	.	.	.	.	.	.	.	.	.	16b/	.	.	.	.	.	.	.	.	.	.	.
.	.	.	.	.	.	.	.	.	.	.	.	.	.	.	.	.	.	.	.	.	.	16a/	.	.	.	.	.	.	.	.	.	.	.
.	.	.	.	.	.	.	.	.	.	.	.	.	.	.	.	.	.	.	.	.	.	16g/JJ	.	.	.	.	.	.	.	.	.	.	.
2r;	.	8GG/	.	8GG/yy	.	8b\ 8d\ 8G\	.	8ff\ 8dd\ 8g\	.	8bb\ 8dd\ 8g\	.	8Ra/	8Ree\	.	8GG/	.	8G/ 8GG/	8f\ 8d\	.	8b/ 8d/	.	(16f#X/LL	8B\	8dd\ 8g\	.	8ff\ 8dd\	.	8bb\	.	8bb\	.	8ddd\	.
.	.	.	.	.	.	.	.	.	.	.	.	.	.	.	.	.	.	.	.	.	.	16g/	.	.	.	.	.	.	.	.	.	.	.
.	.	8r	.	8ryy	.	8r	.	8r	.	8r	.	8r	8r	.	8r	.	8r	8r	.	8r	.	16a/	8r	8r	.	8r	.	8r	.	8r	.	8r	.
.	.	.	.	.	.	.	.	.	.	.	.	.	.	.	.	.	.	.	.	.	.	16g/JJ	.	.	.	.	.	.	.	.	.	.	.
.	.	4r;	.	4r;yy	.	4r;	.	4r;	.	4r;	.	4r;	4r;	.	4r;	.	4r;	4r;	.	4r;	.	8.ee;\L)	4r;	4r;	.	4r;	.	4r;	.	4r;	.	4r;	.
.	.	.	.	.	.	.	.	.	.	.	.	.	.	.	.	.	.	.	.	.	.	16dd\Jk	.	.	.	.	.	.	.	.	.	.	.
=37:|!	=37:|!	=37:|!	=37:|!	=37:|!	=37:|!	=37:|!	=37:|!	=37:|!	=37:|!	=37:|!	=37:|!	=37:|!	=37:|!	=37:|!	=37:|!	=37:|!	=37:|!	=37:|!	=37:|!	=37:|!	=37:|!	=37:|!	=37:|!	=37:|!	=37:|!	=37:|!	=37:|!	=37:|!	=37:|!	=37:|!	=37:|!	=37:|!	=37:|!
*>D	*	*>D	*	*>D	*	*>D	*	*>D	*	*>D	*	*>D	*>D	*	*>D	*	*>D	*>D	*	*>D	*	*>D	*>D	*>D	*	*>D	*	*>D	*	*>D	*	*>D	*
!	!	!	!	!	!	!	!	!	!	!	!	!	!	!	!	!	!	!	!	!	!	!	!	!	!	!	!	!LO:TX:a:t=Oboi col Picolo	!	!	!	!	!
1ryy	.	8C/	.	8C/yy	.	8c\	.	8r	.	8r	.	4Ra/	4Ree\	.	4C/	.	8C/	8e\ 8G\	.	8cc/ 8e/	.	8cc\	8r	8r	.	16ee\|LL 16cc\	.	16ee\LL|yy	.	16ee\LL|	.	(16ccc\LL|	.
.	.	.	.	.	.	.	.	.	.	.	.	.	.	.	.	.	.	.	.	.	.	.	.	.	.	(16gg\ 16ee\	.	(y16gg\yy	.	(16gg\	.	16eee\	.
.	.	8r	.	8ryy	.	8r	.	8g/ 8c/	.	8cc/ 8e/	.	.	.	.	.	.	8r	8r	.	8r	.	8r	8G\	8ee\ 8cc\	.	16ff#X\ 16dd#X\	.	16ff#X\yyyy	.	16ff#X\	.	16ddd#X\	.
.	.	.	.	.	.	.	.	.	.	.	.	.	.	.	.	.	.	.	.	.	.	.	.	.	.	16gg\JJ 16ee\	.	16gg\JJyy	.	16gg\JJ	.	16eee\JJ	.
.	.	8C/	.	8C/yy	.	8c\	.	8r	.	8r	.	4r	4Ree\	.	4r	.	8C/	8e\ 8G\	.	8cc/ 8e/	.	4r	8r	8r	.	16ff#\LL 16dd#\	.	16ff#\LLyy	.	16ff#\LL	.	16ddd#\LL	.
.	.	.	.	.	.	.	.	.	.	.	.	.	.	.	.	.	.	.	.	.	.	.	.	.	.	16gg\ 16ee\	.	16gg\yy	.	16gg\	.	16eee\	.
.	.	8r	.	8ryy	.	8r	.	8g/ 8c/	.	8cc/ 8e/	.	.	.	.	.	.	8r	8r	.	8r	.	.	8G\	8ee\ 8cc\	.	16aa\ 16ffn\	.	16aa\yy	.	16aa\	.	16fff\	.
.	.	.	.	.	.	.	.	.	.	.	.	.	.	.	.	.	.	.	.	.	.	.	.	.	.	16gg\JJ 16ee\)	.	16gg\JJ)yy	.	16gg\JJ)	.	16eee\JJ)	.
.	.	8F\	.	8F\yy	.	8f\	.	8r	.	8r	.	2r	4Ree\	.	2r	.	8F\	8d\ 8A\	.	8a/ 8f/	.	2r	8r	8r	.	(16gg\LL 16ee\	.	(y16gg\LLyy	.	(16gg\LL	.	(16eee\LL	.
!	!	!	!	!	!	!	!	!	!	!	!	!	!	!	!	!	!	!	!	!	!	!	!	!	!	!LO:SIC:v:n=2:s=16ddn	!	!	!	!	!	!	!
.	.	.	.	.	.	.	.	.	.	.	.	.	.	.	.	.	.	.	.	.	.	.	.	.	.	16ff\ 16dd#\	.	16ffn\yy	.	16ffn\	.	16dddn\	.
.	.	8r	.	8ryy	.	8r	.	8f/ 8d/	.	8a/ 8f/	.	.	.	.	.	.	8r	8r	.	8r	.	.	8A\	8ff\ 8dd\	.	16ee\ 16cc#X\	.	16ee\yy	.	16ee\	.	16ccc#X\	.
!	!	!	!	!	!	!	!	!	!	!	!	!	!	!	!	!	!	!	!	!	!	!	!	!	!	!LO:SIC:v:n=2:s=16ddn	!	!	!	!	!	!	!
.	.	.	.	.	.	.	.	.	.	.	.	.	.	.	.	.	.	.	.	.	.	.	.	.	.	16ff\JJ 16dd#\	.	16ff\JJyy	.	16ff\JJ	.	16ddd\JJ	.
.	.	8F\	.	8F\yy	.	8f\	.	8r	.	8r	.	.	4Ree\	.	.	.	8F\	8d\ 8A\	.	8a/ 8f/	.	.	8r	8r	.	16ee\LL 16cc#\	.	16ee\LLyy	.	16ee\LL	.	16ccc#\LL	.
!	!	!	!	!	!	!	!	!	!	!	!	!	!	!	!	!	!	!	!	!	!	!	!	!	!	!LO:SIC:v:n=2:s=16ddn	!	!	!	!	!	!	!
.	.	.	.	.	.	.	.	.	.	.	.	.	.	.	.	.	.	.	.	.	.	.	.	.	.	16ff\ 16dd#\	.	16ff\yy	.	16ff\	.	16ddd\	.
.	.	8r	.	8ryy	.	8r	.	8f/ 8d/	.	8a/ 8f/	.	.	.	.	.	.	8r	8r	.	8r	.	.	8A\	8ff\ 8dd\	.	16gg\ 16ee\	.	16gg\yy	.	16gg\	.	16eee\	.
!	!	!	!	!	!	!	!	!	!	!	!	!	!	!	!	!	!	!	!	!	!	!	!	!	!	!LO:SIC:v:n=2:s=16ddn	!yy	!	!	!	!	!	!
.	.	.	.	.	.	.	.	.	.	.	.	.	.	.	.	.	.	.	.	.	.	.	.	.	.	16ff\JJ 16dd#\)	.	16ff\JJ)yy	.	16ff\JJ)	.	16ddd\JJ)	.
!!LO:PB:g=original
=38	=38	=38	=38	=38	=38	=38	=38	=38	=38	=38	=38	=38	=38	=38	=38	=38	=38	=38	=38	=38	=38	=38	=38	=38	=38	=38	=38	=38	=38	=38	=38	=38	=38
1ryy	.	8G\	.	8G\yy	.	8g\	.	8r	.	8r	.	1r	4Ree\	.	1r	.	8G\	8e\ 8c\	.	8g/ 8e/	.	1r	8r	8r	.	(16ff\LL 16dd\	.	(y16ff\LLyy	.	(16ff\LL	.	(16ddd\LL	.
.	.	.	.	.	.	.	.	.	.	.	.	.	.	.	.	.	.	.	.	.	.	.	.	.	.	16ee\ 16cc\	.	16ee\yy	.	16ee\	.	16ccc\	.
.	.	8r	.	8ryy	.	8r	.	8e/ 8c/	.	8g/	.	.	.	.	.	.	8r	8r	.	8r	.	.	8G\	8ee\ 8cc\	.	16dd#X\ 16b\	.	16dd#X\yy	.	16dd#X\	.	16bb\	.
.	.	.	.	.	.	.	.	.	.	.	.	.	.	.	.	.	.	.	.	.	.	.	.	.	.	16ee\JJ 16cc\	.	16ee\JJyy	.	16ee\JJ	.	16ccc\JJ	.
.	.	8G\	.	8G\yy	.	8g\	.	8r	.	8r	.	.	4Ree\	.	.	.	8G\	8e\ 8c\	.	8g/ 8e/	.	.	8r	8r	.	16dd#\LL 16b\	.	16dd#\LLyy	.	16dd#\LL	.	16bb\LL	.
.	.	.	.	.	.	.	.	.	.	.	.	.	.	.	.	.	.	.	.	.	.	.	.	.	.	16ee\ 16cc\	.	16ee\yy	.	16ee\	.	16ccc\	.
!	!	!	!	!	!	!	!	!	!	!	!	!	!	!	!	!	!	!	!	!	!	!	!	!	!	!LO:SIC:v:n=2:s=16ddn	!	!	!	!	!	!	!
.	.	8r	.	8ryy	.	8r	.	8e/ 8c/	.	8g/	.	.	.	.	.	.	8r	8r	.	8r	.	.	8G\	8ee\ 8cc\	.	16ff\ 16dd#\	.	16ff\yy	.	16ff\	.	16ddd\	.
.	.	.	.	.	.	.	.	.	.	.	.	.	.	.	.	.	.	.	.	.	.	.	.	.	.	16ee\JJ 16cc\)	.	16ee\JJ)yy	.	16ee\JJ)	.	16ccc\JJ)	.
.	.	8GG/	.	8GG/yy	.	8G/	.	8r	.	8r	.	.	4Ree\	.	.	.	8GG/	8f\ 8B\	.	8b/ 8d/	.	.	8r	8r	.	(16ee\LL 16cc\	.	(y16ee\LLyy	.	(16ee\LL	.	(16ccc\LL	.
!	!	!	!	!	!	!	!	!	!	!	!	!	!	!	!	!	!	!	!	!	!	!	!	!	!	!LO:SIC:v:n=1:s=16ddn	!	!LO:SIC:v:s=16ddn	!	!LO:SIC:v:s=16ddn	!	!	!
.	.	.	.	.	.	.	.	.	.	.	.	.	.	.	.	.	.	.	.	.	.	.	.	.	.	16dd#\ 16b\	.	16dd#\yy	.	16dd#\	.	16bb\	.
.	.	8r	.	8ryy	.	8r	.	8f/ 8d/	.	8b/ 8d/	.	.	.	.	.	.	8r	8r	.	8r	.	.	8G\	8ff\ 8dd\	.	16cc#X\ 16a#X\	.	16cc#X\yy	.	16cc#X\	.	16aa#X\	.
!	!	!	!	!	!	!	!	!	!	!	!	!	!	!	!	!	!	!	!	!	!	!	!	!	!	!LO:SIC:v:n=1:s=16ddn	!	!LO:SIC:v:s=16ddn	!	!LO:SIC:v:s=16ddn	!	!	!
.	.	.	.	.	.	.	.	.	.	.	.	.	.	.	.	.	.	.	.	.	.	.	.	.	.	16dd#\JJ 16b\	.	16dd#\JJyy	.	16dd#\JJ	.	16bb\JJ	.
.	.	8GG/	.	8GG/yy	.	8G/	.	8r	.	8r	.	.	4Ree\	.	.	.	8GG/	8f\ 8B\	.	8b/ 8d/	.	.	8r	8r	.	16cc#\LL 16a#\	.	16cc#\LLyy	.	16cc#\LL	.	16aa#\LL	.
!	!	!	!	!	!	!	!	!	!	!	!	!	!	!	!	!	!	!	!	!	!	!	!	!	!	!LO:SIC:v:n=1:s=16ddn	!	!LO:SIC:v:s=16ddn	!	!LO:SIC:v:s=16ddn	!	!	!
.	.	.	.	.	.	.	.	.	.	.	.	.	.	.	.	.	.	.	.	.	.	.	.	.	.	16dd#\ 16b\	.	16dd#\yy	.	16dd#\	.	16bb\	.
.	.	8r	.	8ryy	.	8r	.	8f/ 8d/	.	8b/ 8d/	.	.	.	.	.	.	8r	8r	.	8r	.	.	8G\	8ff\ 8dd\	.	16ee\ 16cc#\	.	16ee\yy	.	16ee\	.	16ccc\	.
!	!	!	!	!	!	!	!	!	!	!	!	!	!	!	!	!	!	!	!	!	!	!	!	!	!	!LO:SIC:v:n=2:s=16ddn	!	!	!	!	!	!	!
.	.	.	.	.	.	.	.	.	.	.	.	.	.	.	.	.	.	.	.	.	.	.	.	.	.	16ff\JJ 16dd#\)	.	16ff\JJ)yy	.	16ff\JJ)	.	16ddd\JJ)	.
=39	=39	=39	=39	=39	=39	=39	=39	=39	=39	=39	=39	=39	=39	=39	=39	=39	=39	=39	=39	=39	=39	=39	=39	=39	=39	=39	=39	=39	=39	=39	=39	=39	=39
*	*	*	*	*	*	*	*	*	*	*	*	*	*rep	*	*	*	*	*	*	*	*	*	*	*rep	*	*	*	*	*	*	*	*	*
!	!	!	!	!	!	!	!	!	!	!	!	!	!	!	!	!	!	!	!	!	!	!	!	!	!	!	!	!	!	!	!	!	!
1ryy	.	8C/	.	8C/yy	.	8c\	.	8r	.	8r	.	1r	4Ree\	.	1r	.	8C/	8e\ 8c\	.	8cc/ 8e/	.	1r	8r	8r	.	16ee\LL 16cc'\	.	16ee\LL|yy	.	16ee\LL|	.	16ccc'\LL	.
.	.	.	.	.	.	.	.	.	.	.	.	.	.	.	.	.	.	.	.	.	.	.	.	.	.	(16gg\ 16ee\	.	(y16gg\yy	.	(16gg\	.	(16eee\	.
.	.	8r	.	8ryy	.	8r	.	8g/ 8c/	.	8cc/ 8e/	.	.	.	.	.	.	8r	8r	.	8r	.	.	8G\	8ee\ 8cc\	.	16ff#X\ 16dd#X\	.	16ff#X\yy	.	16ff#X\	.	16ddd#X\	.
.	.	.	.	.	.	.	.	.	.	.	.	.	.	.	.	.	.	.	.	.	.	.	.	.	.	16gg\JJ 16ee\	.	16gg\JJyy	.	16gg\JJ	.	16eee\JJ	.
.	.	8C/	.	8C/yy	.	8c\	.	8r	.	8r	.	.	4Ree\	.	.	.	8C/	8e\ 8G\	.	8cc/ 8e/	.	.	8r	8r	.	16ff#\LL 16dd#\	.	16ff#\LLyy	.	16ff#\LL	.	16ddd#\LL	.
.	.	.	.	.	.	.	.	.	.	.	.	.	.	.	.	.	.	.	.	.	.	.	.	.	.	16gg\ 16ee\)	.	16gg\)yy	.	16gg\)	.	16eee\)	.
.	.	8r	.	8ryy	.	8r	.	8g/ 8c/	.	8cc/ 8e/	.	.	.	.	.	.	8r	8r	.	8r	.	.	8G\	8ee\ 8cc\	.	16ccc\ 16ee'\	.	16ccc'\yy	.	16ccc'\	.	16eee'\	.
.	.	.	.	.	.	.	.	.	.	.	.	.	.	.	.	.	.	.	.	.	.	.	.	.	.	16gg\JJ 16ee'\	.	16gg'\JJyy	.	16gg'\JJ	.	16eee'\JJ	.
.	.	8F\	.	8F\yy	.	8f\	.	8r	.	8r	.	.	4Ree\	.	.	.	8F\	8d\ 8A\	.	8a/ 8f/	.	.	8r	8r	.	(16gg\LL 16ee\	.	(y16gg\LLyy	.	(16gg\LL	.	(16eee\LL	.
.	.	.	.	.	.	.	.	.	.	.	.	.	.	.	.	.	.	.	.	.	.	.	.	.	.	16ffn\ 16ddn\	.	16ffn\yy	.	16ffn\	.	16dddn\	.
.	.	8r	.	8ryy	.	8r	.	8f/ 8d/	.	8a/ 8f/	.	.	.	.	.	.	8r	8r	.	8r	.	.	8A\	8ff\ 8dd\	.	16ee\ 16cc#X\	.	16ee\yy	.	16ee\	.	16ccc#X\	.
.	.	.	.	.	.	.	.	.	.	.	.	.	.	.	.	.	.	.	.	.	.	.	.	.	.	16ff\JJ 16dd\	.	16ff\JJyy	.	16ff\JJ	.	16ddd\JJ	.
.	.	8F\	.	8F\yy	.	8f\	.	8r	.	8r	.	.	4Ree\	.	.	.	8F\	8d\ 8A\	.	8a/ 8f/	.	.	8r	8r	.	16ee\LL 16cc#\	.	16ee\LLyy	.	16ee\LL	.	16ccc#\LL	.
.	.	.	.	.	.	.	.	.	.	.	.	.	.	.	.	.	.	.	.	.	.	.	.	.	.	16ff\ 16dd\)	.	16ff\)yy	.	16ff\)	.	16ddd\)	.
.	.	8r	.	8ryy	.	8r	.	8f/ 8d/	.	8a/ 8f/	.	.	.	.	.	.	8r	8r	.	8r	.	.	8A\	8ff\ 8dd\	.	16aa\ 16ff'\	.	16aa'\yy	.	16aa'\	.	16fff'\	.
.	.	.	.	.	.	.	.	.	.	.	.	.	.	.	.	.	.	.	.	.	.	.	.	.	.	16ff\JJ 16dd'\	.	16ff'\JJyy	.	16ff'\JJ	.	16ddd'\JJ	.
*	*	*	*	*	*	*	*	*	*	*	*	*	*Xrep	*	*	*	*	*	*	*	*	*	*	*Xrep	*	*	*	*	*	*	*	*	*
=40	=40	=40	=40	=40	=40	=40	=40	=40	=40	=40	=40	=40	=40	=40	=40	=40	=40	=40	=40	=40	=40	=40	=40	=40	=40	=40	=40	=40	=40	=40	=40	=40	=40
*	*	*	*	*	*	*	*	*	*	*	*	*	*rep	*	*	*	*	*	*	*	*	*	*	*	*	*	*	*	*	*	*	*	*
1ryy	.	8G\	.	8G\yy	.	8g\	.	8r	.	8r	.	1r	4Ree\	.	2r	.	8G\	8e\ 8c\	.	8g/ 8e/	.	1r	8r	8r	.	(16ff\LL 16dd\	.	(y16ff\LLyy	.	(16ff\LL	.	(16ddd\LL	.
.	.	.	.	.	.	.	.	.	.	.	.	.	.	.	.	.	.	.	.	.	.	.	.	.	.	16ee\ 16cc\	.	16ee\yy	.	16ee\	.	16ccc\	.
.	.	8r	.	8ryy	.	8r	.	8e/ 8c/	.	8g/	.	.	.	.	.	.	8r	8r	.	8r	.	.	8G\	8ee\ 8cc\	.	16dd#X\ 16b\	.	16dd#X\yy	.	16dd#X\	.	16bb\	.
.	.	.	.	.	.	.	.	.	.	.	.	.	.	.	.	.	.	.	.	.	.	.	.	.	.	16ee\JJ 16cc\	.	16ee\JJyy	.	16ee\JJ	.	16ccc\JJ	.
.	.	8G\	.	8G\yy	.	8g\	.	8r	.	8r	.	.	4Ree\	.	.	.	8G\	8e\ 8c\	.	8g/ 8e/	.	.	8r	8r	.	16dd#\LL 16b\	.	16dd#\LLyy	.	16dd#\LL	.	16bb\LL	.
.	.	.	.	.	.	.	.	.	.	.	.	.	.	.	.	.	.	.	.	.	.	.	.	.	.	16ee\ 16cc\)	.	16ee\)yy	.	16ee\)	.	16ccc\)	.
.	.	8r	.	8ryy	.	8r	.	8e/ 8c/	.	8g/	.	.	.	.	.	.	8r	8r	.	8r	.	.	8G\	8ee\ 8cc\	.	16gg\ 16ee'\	.	16gg'\yy	.	16gg'\	.	16eee'\	.
.	.	.	.	.	.	.	.	.	.	.	.	.	.	.	.	.	.	.	.	.	.	.	.	.	.	16ee\JJ 16cc'\	.	16ee'\JJyy	.	16ee'\JJ	.	16ccc'\JJ	.
.	.	8GG/	.	8GG/yy	.	8G/	.	8r	.	8r	.	.	4Ree\	.	8GG/	.	8GG/	8f\ 8d\	.	8b/ 8d/	.	.	8r	8r	.	(16ee\LL 16cc\	.	(y16ee\LLyy	.	(16ee\LL	.	(16ccc\LL	.
.	.	.	.	.	.	.	.	.	.	.	.	.	.	.	.	.	.	.	.	.	.	.	.	.	.	16ddn\ 16b\	.	16ddn\yy	.	16ddn\	.	16bb\	.
.	.	8r	.	8ryy	.	8r	.	8f/ 8d/	.	8b/ 8d/	.	.	.	.	8r	.	8r	8r	.	8r	.	.	8B\	8dd/ 8g/	.	16cc#X\ 16a#X\	.	16cc#X\yy	.	16cc#X\	.	16aa#X\	.
.	.	.	.	.	.	.	.	.	.	.	.	.	.	.	.	.	.	.	.	.	.	.	.	.	.	16dd\JJ 16b\	.	16dd\JJyy	.	16dd\JJ	.	16bb\JJ	.
.	.	8GG/	.	8GG/yy	.	8G/	.	8r	.	8r	.	.	4Ree\	.	8GG/	.	8GG/	8f\ 8d\	.	8b/ 8d/	.	.	8r	8r	.	16gg\LL 16b\	.	16gg\LLyy	.	16gg\LL	.	16bb\LL	.
!	!	!	!	!	!	!	!	!	!	!	!	!	!	!	!	!	!	!	!	!	!	!	!	!	!	!LO:SIC:v:n=2:s=16an	!	!	!	!	!	!	!
.	.	.	.	.	.	.	.	.	.	.	.	.	.	.	.	.	.	.	.	.	.	.	.	.	.	16ff\ 16a#\)	.	16ff\)yy	.	16ff\)	.	16aan\)	.
.	.	8r	.	8ryy	.	8r	.	8f/ 8d/	.	8b/ 8d/	.	.	.	.	8r	.	8r	8r	.	8r	.	.	8B\	8dd/ 8g/	.	16ee\ 16g'\	.	16ee'\yy	.	16ee'\	.	16gg'\	.
.	.	.	.	.	.	.	.	.	.	.	.	.	.	.	.	.	.	.	.	.	.	.	.	.	.	16dd\JJ 16f'\	.	16dd'\JJyy	.	16dd'\JJ	.	16ff'\JJ	.
*	*	*	*	*	*	*	*	*	*	*	*	*	*Xrep	*	*	*	*	*	*	*	*	*	*	*	*	*	*	*	*	*	*	*	*
!!LO:PB:g=original
=41	=41	=41	=41	=41	=41	=41	=41	=41	=41	=41	=41	=41	=41	=41	=41	=41	=41	=41	=41	=41	=41	=41	=41	=41	=41	=41	=41	=41	=41	=41	=41	=41	=41
1ryy	.	8C/	.	8C/yy	.	8G/ 8C/	.	8e/ 8c/	.	8cc/ 8e/	.	8Ra/	8Ree\	.	8C/	.	8C/	8e\ 8c\	.	8cc/ 8e/	.	16r	8c\	8cc/ 8e/	.	8cc/ 8e/	.	8cc\	.	8cc\	.	8ee\	.
.	.	.	.	.	.	.	.	.	.	.	.	.	.	.	.	.	.	.	.	.	.	16c/LL	.	.	.	.	.	.	.	.	.	.	.
.	.	8r	.	8ryy	.	8r	.	8r	.	8r	.	8r	8r	.	8r	.	8r	8r	.	8r	.	16d/	8r	8r	.	8r	.	8r	.	8r	.	8r	.
.	.	.	.	.	.	.	.	.	.	.	.	.	.	.	.	.	.	.	.	.	.	16e/JJ	.	.	.	.	.	.	.	.	.	.	.
.	.	4r	.	4ryy	.	4r	.	4r	.	4r	.	4r	4r	.	4r	.	4r	4r	.	4r	.	16f/LL	4r	4r	.	4r	.	4r	.	4r	.	4r	.
.	.	.	.	.	.	.	.	.	.	.	.	.	.	.	.	.	.	.	.	.	.	16g/	.	.	.	.	.	.	.	.	.	.	.
.	.	.	.	.	.	.	.	.	.	.	.	.	.	.	.	.	.	.	.	.	.	16a/	.	.	.	.	.	.	.	.	.	.	.
.	.	.	.	.	.	.	.	.	.	.	.	.	.	.	.	.	.	.	.	.	.	16b/JJ	.	.	.	.	.	.	.	.	.	.	.
.	.	2r	.	2ryy	.	2r	.	2r	.	2r	.	2r	2r	.	2r	.	2r	2r	.	2r	.	16cc\LL	2r	2r	.	2r	.	2r	.	2r	.	2r	.
.	.	.	.	.	.	.	.	.	.	.	.	.	.	.	.	.	.	.	.	.	.	16dd\	.	.	.	.	.	.	.	.	.	.	.
.	.	.	.	.	.	.	.	.	.	.	.	.	.	.	.	.	.	.	.	.	.	16ee\	.	.	.	.	.	.	.	.	.	.	.
.	.	.	.	.	.	.	.	.	.	.	.	.	.	.	.	.	.	.	.	.	.	16ff\JJ	.	.	.	.	.	.	.	.	.	.	.
.	.	.	.	.	.	.	.	.	.	.	.	.	.	.	.	.	.	.	.	.	.	16ff#X\LL	.	.	.	.	.	.	.	.	.	.	.
.	.	.	.	.	.	.	.	.	.	.	.	.	.	.	.	.	.	.	.	.	.	16gg\	.	.	.	.	.	.	.	.	.	.	.
.	.	.	.	.	.	.	.	.	.	.	.	.	.	.	.	.	.	.	.	.	.	16aa\	.	.	.	.	.	.	.	.	.	.	.
.	.	.	.	.	.	.	.	.	.	.	.	.	.	.	.	.	.	.	.	.	.	16ff#\JJ	.	.	.	.	.	.	.	.	.	.	.
=42	=42	=42	=42	=42	=42	=42	=42	=42	=42	=42	=42	=42	=42	=42	=42	=42	=42	=42	=42	=42	=42	=42	=42	=42	=42	=42	=42	=42	=42	=42	=42	=42	=42
!	!	!	!LO:DY:rj	!	!LO:DY:rj	!	!LO:DY:rj	!	!	!	!LO:DY:rj	!	!	!	!	!LO:DY:rj	!	!	!	!	!LO:DY:rj	!	!	!	!	!	!	!	!LO:DY:rj	!	!	!	!LO:DY:rj
1ryy	.	8G\L	ff	8G\Lyy	ffy	8e\L 8G\	ff	8ee\L 8g\	.	8gg\L 8cc\	ff	4Ra/	8Ree\L	.	8GG/L	ff	8G/L 8GG/	8G/L	.	8ee\L 8cc\	ff	4gg\	8G\L	8ee\L 8cc\	.	8ee\L 8cc\	.	8gg\L	ff	8gg\L	.	8eee\L	ff
.	.	16G\L	.	16G\Lyy	.	16e\L 16G\	.	16ee\L 16g\	.	16gg\L 16cc\	.	.	16Ree\L	.	16GG/L	.	16G/L 16GG/	16G/L	.	16ee\L 16cc\	.	.	16G\L	16ee\L 16cc\	.	16ee\L 16cc\	.	16gg\L	.	16gg\L	.	16eee\L	.
.	.	16G\JJ	.	16G\JJyy	.	16e\JJ 16G\	.	16ee\JJ 16g\	.	16gg\JJ 16cc\	.	.	16Ree\JJ	.	16GG/JJ	.	16G/JJ 16GG/	16G/JJ	.	16ee\JJ 16cc\	.	.	16G\JJ	16ee\JJ 16cc\	.	16ee\JJ 16cc\	.	16gg\JJ	.	16gg\JJ	.	16eee\JJ	.
*	*	*tremolo	*	*tremolo	*	*tremolo	*	*tremolo	*	*tremolo	*	*	*tremolo	*	*tremolo	*	*tremolo	*tremolo	*	*tremolo	*	*	*tremolo	*tremolo	*	*tremolo	*	*tremolo	*	*tremolo	*	*tremolo	*
!	!	!	!	!	!	!	!	!	!	!	!	!	!	!	!	!	!	!	!	!	!	!	!	!	!	!	!	!	!	!	!	!LO:TX:t=..	!
.	.	8G\L	.	8G\Lyy	.	8e\L 8G\	.	8ee\L 8g\	.	8gg\L 8cc\	.	4r	8Ree\L	.	8GG/L	.	8G/L 8GG/	8G/L	.	8ee\L 8cc\	.	4r	8G\L	8ee\L 8cc\	.	8ee\L 8cc\	.	8gg\L	.	8gg\L	.	8eee'\L	.
.	.	8G\J	.	8G\Jyy	.	8e\J 8G\	.	8ee\J 8g\	.	8gg\J 8cc\	.	.	8Ree\J	.	8GG/J	.	8G/J 8GG/	8G/J	.	8ee\J 8cc\	.	.	8G\J	8ee\J 8cc\	.	8ee\J 8cc\	.	8gg\J	.	8gg\J	.	8eee'\J	.
*	*	*Xtremolo	*	*Xtremolo	*	*Xtremolo	*	*Xtremolo	*	*Xtremolo	*	*	*Xtremolo	*	*Xtremolo	*	*Xtremolo	*Xtremolo	*	*Xtremolo	*	*	*Xtremolo	*Xtremolo	*	*Xtremolo	*	*Xtremolo	*	*Xtremolo	*	*Xtremolo	*
*	*	*	*	*	*	*	*	*	*	*	*	*	*rep	*	*rep	*	*rep	*	*	*	*	*	*	*	*	*	*	*	*	*	*	*	*
.	.	8GG/L	.	8GG/Lyy	.	8d\L 8G\	.	8dd\L 8g\	.	8bb\L 8dd\	.	4Ra/	8Ree\L	.	8GG/L	.	8G/L 8GG/	8B/L 8D/	.	8dd/L 8g/	.	2r	8B\L	8dd/L 8g/	.	8dd\L 8b\	.	8bb\L	.	8bb\L	.	8ddd\L	.
.	.	16GG/L	.	16GG/Lyy	.	16d\L 16G\	.	16dd\L 16g\	.	16bb\L 16dd\	.	.	16Ree\L	.	16GG/L	.	16G/L 16GG/	16B/L 16D/	.	16dd/L 16g/	.	.	16B\L	16dd/L 16g/	.	16dd\L 16b\	.	16bb\L	.	16bb\L	.	16ddd\L	.
.	.	16GG/JJ	.	16GG/JJyy	.	16d\JJ 16G\	.	16dd\JJ 16g\	.	16bb\JJ 16dd\	.	.	16Ree\JJ	.	16GG/JJ	.	16G/JJ 16GG/	16B/JJ 16D/	.	16dd/JJ 16g/	.	.	16B\JJ	16dd/JJ 16g/	.	16dd\JJ 16b\	.	16bb\JJ	.	16bb\JJ	.	16ddd\JJ	.
*	*	*tremolo	*	*tremolo	*	*tremolo	*	*tremolo	*	*tremolo	*	*	*tremolo	*	*tremolo	*	*tremolo	*tremolo	*	*tremolo	*	*	*tremolo	*tremolo	*	*tremolo	*	*tremolo	*	*tremolo	*	*tremolo	*
!	!	!	!	!	!	!	!	!	!	!	!	!	!	!	!	!	!	!	!	!	!	!	!	!	!	!	!	!	!	!	!	!LO:TX:t=..	!
.	.	8GG/L	.	8GG/Lyy	.	8d\L 8G\	.	8dd\L 8g\	.	8bb\L 8dd\	.	4r	8Ree\L	.	8GG/L	.	8G/L 8GG/	8B/L 8D/	.	8dd/L 8g/	.	.	8B\L	8dd/L 8g/	.	8dd\L 8b\	.	8bb\L	.	8bb\L	.	8ddd'\L	.
.	.	8GG/J	.	8GG/Jyy	.	8d\J 8G\	.	8dd\J 8g\	.	8bb\J 8dd\	.	.	8Ree\J	.	8GG/J	.	8G/J 8GG/	8B/J 8D/	.	8dd/J 8g/	.	.	8B\J	8dd/J 8g/	.	8dd\J 8b\	.	8bb\J	.	8bb\J	.	8ddd'\J	.
*	*	*Xtremolo	*	*Xtremolo	*	*Xtremolo	*	*Xtremolo	*	*Xtremolo	*	*	*Xtremolo	*	*Xtremolo	*	*Xtremolo	*Xtremolo	*	*Xtremolo	*	*	*Xtremolo	*Xtremolo	*	*Xtremolo	*	*Xtremolo	*	*Xtremolo	*	*Xtremolo	*
*	*	*	*	*	*	*	*	*	*	*	*	*	*Xrep	*	*Xrep	*	*Xrep	*	*	*	*	*	*	*	*	*	*	*	*	*	*	*	*
=43	=43	=43	=43	=43	=43	=43	=43	=43	=43	=43	=43	=43	=43	=43	=43	=43	=43	=43	=43	=43	=43	=43	=43	=43	=43	=43	=43	=43	=43	=43	=43	=43	=43
1ryy	.	8C/	.	8C/yy	.	8e/ 8G/	.	8cc/ 8g/	.	8ccc\ 8ee\	.	8Ra/	8Ree\	.	8C/	.	8G\ 8C\	8c/ 8E/	.	8cc/ 8e/	.	16r	8c\	8ee/ 8g/	.	8ee\ 8cc\	.	8ccc\	.	8ccc\	.	8eee\	.
.	.	.	.	.	.	.	.	.	.	.	.	.	.	.	.	.	.	.	.	.	.	16c/LL	.	.	.	.	.	.	.	.	.	.	.
.	.	8r	.	8ryy	.	8r	.	8r	.	8r	.	8r	8r	.	8r	.	8r	8r	.	8r	.	16d/	8r	8r	.	8r	.	8r	.	8r	.	8r	.
.	.	.	.	.	.	.	.	.	.	.	.	.	.	.	.	.	.	.	.	.	.	16e/JJ	.	.	.	.	.	.	.	.	.	.	.
.	.	4G\	.	4G\yy	.	4r	.	4r	.	4r	.	4r	4r	.	4r	.	4G\	4G/	.	4r	.	16f/LL	4G\	4r	.	4r	.	4r	.	4r	.	4r	.
.	.	.	.	.	.	.	.	.	.	.	.	.	.	.	.	.	.	.	.	.	.	16g/	.	.	.	.	.	.	.	.	.	.	.
.	.	.	.	.	.	.	.	.	.	.	.	.	.	.	.	.	.	.	.	.	.	16a/	.	.	.	.	.	.	.	.	.	.	.
.	.	.	.	.	.	.	.	.	.	.	.	.	.	.	.	.	.	.	.	.	.	16b/JJ	.	.	.	.	.	.	.	.	.	.	.
.	.	4E\	.	4E\yy	.	2r	.	2r	.	2r	.	2r	2r	.	2r	.	4E\	4e\	.	16c/LL	.	16cc\LL	4E\	2r	.	2r	.	2r	.	2r	.	2r	.
.	.	.	.	.	.	.	.	.	.	.	.	.	.	.	.	.	.	.	.	16d/	.	16dd\	.	.	.	.	.	.	.	.	.	.	.
.	.	.	.	.	.	.	.	.	.	.	.	.	.	.	.	.	.	.	.	16e/	.	16ee\	.	.	.	.	.	.	.	.	.	.	.
.	.	.	.	.	.	.	.	.	.	.	.	.	.	.	.	.	.	.	.	16f/JJ	.	16ff\JJ	.	.	.	.	.	.	.	.	.	.	.
.	.	4C/	.	4C/yy	.	.	.	.	.	.	.	.	.	.	.	.	4C\	4c\	.	16g/LL	.	16gg\LL	4C/	.	.	.	.	.	.	.	.	.	.
.	.	.	.	.	.	.	.	.	.	.	.	.	.	.	.	.	.	.	.	16a/	.	16aa\	.	.	.	.	.	.	.	.	.	.	.
.	.	.	.	.	.	.	.	.	.	.	.	.	.	.	.	.	.	.	.	16b/	.	16bb\	.	.	.	.	.	.	.	.	.	.	.
.	.	.	.	.	.	.	.	.	.	.	.	.	.	.	.	.	.	.	.	16cc/JJ	.	16ccc\JJ	.	.	.	.	.	.	.	.	.	.	.
!!LO:PB:g=original
=44	=44	=44	=44	=44	=44	=44	=44	=44	=44	=44	=44	=44	=44	=44	=44	=44	=44	=44	=44	=44	=44	=44	=44	=44	=44	=44	=44	=44	=44	=44	=44	=44	=44
1ryy	.	8G\L	.	8G\Lyy	.	8e/L 8G/	.	8ee\L 8g\	.	8gg\L 8cc\	.	4Ra/	8Ree\L	.	8GG/L	.	8G\L	8G/L	.	8g/L	.	4gg\	8G\L	8ee\L 8cc\	.	8ee\L 8cc\	.	8gg\L	.	8gg\L	.	8eee\L	.
.	.	16G\L	.	16G\Lyy	.	16e/L 16G/	.	16ee\L 16g\	.	16gg\L 16cc\	.	.	16Ree\L	.	16GG/L	.	16G\L	16G/L	.	16ee/L 16cc/	.	.	16G\L	16ee\L 16cc\	.	16ee\L 16cc\	.	16gg\L	.	16gg\L	.	16eee\L	.
.	.	16G\JJ	.	16G\JJyy	.	16e/JJ 16G/	.	16ee\JJ 16g\	.	16gg\JJ 16cc\	.	.	16Ree\JJ	.	16GG/JJ	.	16G\JJ	16G/JJ	.	16ee/JJ 16cc/	.	.	16G\JJ	16ee\JJ 16cc\	.	16ee\JJ 16cc\	.	16gg\JJ	.	16gg\JJ	.	16eee\JJ	.
*	*	*tremolo	*	*tremolo	*	*tremolo	*	*tremolo	*	*tremolo	*	*	*tremolo	*	*tremolo	*	*tremolo	*tremolo	*	*tremolo	*	*	*tremolo	*tremolo	*	*tremolo	*	*tremolo	*	*tremolo	*	*tremolo	*
.	.	8G\L	.	8G\Lyy	.	8e/L 8G/	.	8ee\L 8g\	.	8gg\L 8cc\	.	4r	8Ree\L	.	8GG/L	.	8G\L	8G/L	.	8ee/L 8cc/	.	4r	8G\L	8ee\L 8cc\	.	8ee\L 8cc\	.	8gg\L	.	8gg\L	.	8eee\L	.
.	.	8G\J	.	8G\Jyy	.	8e/J 8G/	.	8ee\J 8g\	.	8gg\J 8cc\	.	.	8Ree\J	.	8GG/J	.	8G\J	8G/J	.	8ee/J 8cc/	.	.	8G\J	8ee\J 8cc\	.	8ee\J 8cc\	.	8gg\J	.	8gg\J	.	8eee\J	.
*	*	*Xtremolo	*	*Xtremolo	*	*Xtremolo	*	*Xtremolo	*	*Xtremolo	*	*	*Xtremolo	*	*Xtremolo	*	*Xtremolo	*Xtremolo	*	*Xtremolo	*	*	*Xtremolo	*Xtremolo	*	*Xtremolo	*	*Xtremolo	*	*Xtremolo	*	*Xtremolo	*
*	*	*	*	*	*	*	*	*	*	*	*	*	*rep	*	*rep	*	*	*	*	*	*	*	*	*	*	*	*	*	*	*	*	*	*
.	.	8GG/L	.	8GG/Lyy	.	8d/L 8G/	.	8ff\L 8g\	.	8bb\L 8dd\	.	4Ra/	8Ree\L	.	8GG/L	.	8GG/L	8B/L 8D/	.	8dd/L 8g/	.	2r	8B\L	8dd\L 8g\	.	8ff\L 8dd\	.	8bb\L	.	8bb\L	.	8ddd\L	.
.	.	16GG/L	.	16GG/Lyy	.	16d/L 16G/	.	16ff\L 16g\	.	16bb\L 16dd\	.	.	16Ree\L	.	16GG/L	.	16GG/L	16B/L 16D/	.	16dd/L 16g/	.	.	16B\L	16dd\L 16g\	.	16ff\L 16dd\	.	16bb\L	.	16bb\L	.	16ddd\L	.
.	.	16GG/JJ	.	16GG/JJyy	.	16d/JJ 16G/	.	16ff\JJ 16g\	.	16bb\JJ 16dd\	.	.	16Ree\JJ	.	16GG/JJ	.	16GG/JJ	16B/JJ 16D/	.	16dd/JJ 16g/	.	.	16B\JJ	16dd\JJ 16g\	.	16ff\JJ 16dd\	.	16bb\JJ	.	16bb\JJ	.	16ddd\JJ	.
*	*	*tremolo	*	*tremolo	*	*tremolo	*	*tremolo	*	*tremolo	*	*	*tremolo	*	*tremolo	*	*tremolo	*tremolo	*	*tremolo	*	*	*tremolo	*tremolo	*	*tremolo	*	*tremolo	*	*tremolo	*	*tremolo	*
.	.	8GG/L	.	8GG/Lyy	.	8d/L 8G/	.	8ff\L 8g\	.	8bb\L 8dd\	.	4r	8Ree\L	.	8GG/L	.	8GG/L	8B/L 8D/	.	8dd/L 8g/	.	.	8B\L	8dd\L 8g\	.	8ff\L 8dd\	.	8bb\L	.	8bb\L	.	8ddd\L	.
.	.	8GG/J	.	8GG/Jyy	.	8d/J 8G/	.	8ff\J 8g\	.	8bb\J 8dd\	.	.	8Ree\J	.	8GG/J	.	8GG/J	8B/J 8D/	.	8dd/J 8g/	.	.	8B\J	8dd\J 8g\	.	8ff\J 8dd\	.	8bb\J	.	8bb\J	.	8ddd\J	.
*	*	*Xtremolo	*	*Xtremolo	*	*Xtremolo	*	*Xtremolo	*	*Xtremolo	*	*	*Xtremolo	*	*Xtremolo	*	*Xtremolo	*Xtremolo	*	*Xtremolo	*	*	*Xtremolo	*Xtremolo	*	*Xtremolo	*	*Xtremolo	*	*Xtremolo	*	*Xtremolo	*
*	*	*	*	*	*	*	*	*	*	*	*	*	*Xrep	*	*Xrep	*	*	*	*	*	*	*	*	*	*	*	*	*	*	*	*	*	*
=45	=45	=45	=45	=45	=45	=45	=45	=45	=45	=45	=45	=45	=45	=45	=45	=45	=45	=45	=45	=45	=45	=45	=45	=45	=45	=45	=45	=45	=45	=45	=45	=45	=45
!	!	!	!	!	!	!	!	!	!	!	!	!	!	!	!	!	!	!	!	!	!	!	!	!	!	!	!	!	!	!LO:TX:a:t=Col Fl	!	!	!
!	!	!	!	!	!	!	!	!	!	!	!	!	!	!	!	!	!	!	!	!	!	!	!	!	!	!	!	!	!	!	!	!	!
1ryy	.	8C/	.	8C/yy	.	8c\L	.	8ee\L 8g\	.	8ccc\L 8ee\	.	4Ra/	8Ree\L	.	8C/L	.	8C/	8c/ 8E/	.	8cc/L 8e/	.	1r	4c\	4ee\ 4cc\	.	8ee\L 8cc\|	.	8ccc'\L	.	8ccc\L|yy	.	8ccc\L|	.
*	*	*	*	*	*	*	*	*	*	*	*	*	*	*	*	*	*	*	*	*	*	*	*	*	*	*Xtuplet	*	*Xtuplet	*	*	*	*	*
!	!	!	!	!	!	!	!	!	!	!	!	!	!	!	!	!	!	!	!	!	!	!	!	!	!	!LO:TX:t=P:problem:klamra łukowa:global	!	!LO:TX:t=P:problem:klamra łukowa:global	!	!LO:TX:t=P:problem:klamra łukowa:global	!	!LO:TX:t=P:problem:klamra łukowa:global	!
!	!	!	!	!	!	!	!	!	!	!	!	!	!	!	!	!	!	!	!	!	!	!	!	!	!	!	!	!	!	!LO:TUP:a	!	!LO:TUP:a	!
.	.	8r	.	8ryy	.	8cc\J 8e\	.	8gg\J 8cc\	.	8ccc\J 8ee\	.	.	8Ree\J	.	8C/J	.	8r	8r	.	8cc/J 8e/	.	.	.	.	.	24ee\L	.	24ee\L	.	24eee\Lyy	.	24eee\L	.
.	.	.	.	.	.	.	.	.	.	.	.	.	.	.	.	.	.	.	.	.	.	.	.	.	.	24dd\	.	24dd\	.	24ddd\yy	.	24ddd\	.
.	.	.	.	.	.	.	.	.	.	.	.	.	.	.	.	.	.	.	.	.	.	.	.	.	.	24cc\JJ	.	24cc\JJ	.	24ccc\JJyy	.	24ccc\JJ	.
!	!	!	!	!	!	!	!	!	!	!	!	!	!	!	!	!	!	!	!	!	!	!	!	!	!	!	!	!	!	!	!	!	!
.	.	8A-X\	.	8A-X\yy	.	8r	.	8r	.	8r	.	4Ra/	8r	.	8r	.	8A-X\	8c/ 8E-X/	.	8r	.	.	4A-X\	4ee-X\ 4cc\	.	8cc\L|	.	8cc'\L	.	8ccc\L|yy	.	8ccc\L|	.
!	!	!	!	!	!	!	!	!	!	!	!	!	!	!	!	!	!	!	!	!	!	!	!	!	!	!	!	!	!	!LO:TUP:a	!	!LO:TUP:a	!
.	.	8r	.	8ryy	.	8cc\ 8e-X\	.	8aa-X\ 8cc\	.	8ccc\ 8ee-X\	.	.	8Ree\	.	8C/	.	8r	8r	.	8cc/ 8e-X/	.	.	.	.	.	24ee-X\L	.	24ee-X\L	.	24eee-X\Lyy	.	24eee-X\L	.
.	.	.	.	.	.	.	.	.	.	.	.	.	.	.	.	.	.	.	.	.	.	.	.	.	.	24dd\	.	24dd\	.	24ddd\yy	.	24ddd\	.
.	.	.	.	.	.	.	.	.	.	.	.	.	.	.	.	.	.	.	.	.	.	.	.	.	.	24cc\JJ	.	24cc\JJ	.	24ccc\JJyy	.	24ccc\JJ	.
!	!	!	!	!	!	!	!	!	!	!	!	!	!	!	!	!	!	!	!	!	!	!	!	!	!	!	!	!	!	!	!	!	!
.	.	8G\	.	8G\yy	.	8r	.	8r	.	8r	.	4Ra/	8r	.	8r	.	8G\	8c/ 8En/	.	8r	.	.	4G\	4een\ 4cc\	.	8cc\L|	.	8cc\L|	.	8ccc\L|yy	.	8ccc\L|	.
!	!	!	!	!	!	!	!	!	!	!	!	!	!	!	!	!	!	!	!	!	!	!	!	!	!	!	!	!	!	!LO:TUP:a	!	!LO:TUP:a	!
.	.	8r	.	8ryy	.	8cc\ 8en\	.	8gg\ 8cc\	.	8ccc\ 8een\	.	.	8Ree\	.	8C/	.	8r	8r	.	8cc/ 8en/	.	.	.	.	.	24een\L	.	24een\L	.	24eeen\Lyy	.	24eeen\L	.
.	.	.	.	.	.	.	.	.	.	.	.	.	.	.	.	.	.	.	.	.	.	.	.	.	.	24dd\	.	24dd\	.	24ddd\yyyy	.	24ddd\	.
.	.	.	.	.	.	.	.	.	.	.	.	.	.	.	.	.	.	.	.	.	.	.	.	.	.	24cc\JJ	.	24cc\JJ	.	24ccc\JJyy	.	24ccc\JJ	.
!	!	!	!	!	!	!	!	!	!	!	!	!	!	!	!	!	!	!	!	!	!	!	!	!	!	!	!	!	!	!	!	!	!
.	.	8GG/	.	8GG/yy	.	8r	.	8r	.	8r	.	4Ra/	8r	.	8r	.	8GG/	8B/ 8D/	.	8r	.	.	4GG/	4ff\ 4dd\	.	8b\L|	.	8b\L|	.	8bb\L|yy	.	8bb\L|	.
!	!	!	!	!	!	!	!	!	!	!	!	!	!	!	!	!	!	!	!	!	!	!	!	!	!	!	!	!	!	!LO:TUP:a	!	!LO:TUP:a	!
.	.	8r	.	8ryy	.	8dd\ 8f\	.	8gg\ 8b\	.	8bb\ 8dd\	.	.	8Ree\	.	8GG/	.	8r	8r	.	8dd/ 8f/	.	.	.	.	.	24dd\L	.	24dd\L	.	24ddd\Lyy	.	24ddd\L	.
.	.	.	.	.	.	.	.	.	.	.	.	.	.	.	.	.	.	.	.	.	.	.	.	.	.	24cc\	.	24cc\	.	24ccc\yy	.	24ccc\	.
.	.	.	.	.	.	.	.	.	.	.	.	.	.	.	.	.	.	.	.	.	.	.	.	.	.	24b\JJ	.	24b\JJ	.	24bb\JJyy	.	24bb\JJ	.
=46	=46	=46	=46	=46	=46	=46	=46	=46	=46	=46	=46	=46	=46	=46	=46	=46	=46	=46	=46	=46	=46	=46	=46	=46	=46	=46	=46	=46	=46	=46	=46	=46	=46
*	*	*	*	*	*	*	*	*	*	*	*	*	*	*	*	*	*rep	*rep	*	*	*	*	*	*rep	*	*	*	*	*	*repy	*	*rep	*
!	!	!	!	!	!	!	!	!	!	!	!	!	!	!	!	!	!	!	!	!	!	!	!	!	!	!	!	!	!	!	!	!	!
1ryy	.	8C/	.	8C/yy	.	8r	.	8r	.	8r	.	4Ra/	8r	.	8r	.	8C/	8c/ 8E/	.	8r	.	1r	4C/	4ee\ 4cc\	.	8cc\L|	.	8cc\L|	.	8ccc\L|yy	.	8ccc\L|	.
!	!	!	!	!	!	!	!	!	!	!	!	!	!	!	!	!	!	!	!	!	!	!	!	!	!	!	!	!	!	!LO:TUP:a	!	!LO:TUP:a	!
.	.	8r	.	8ryy	.	8cc\ 8e\	.	8gg\ 8cc\	.	8ccc\ 8ee\	.	.	8Ree\	.	8C/	.	8r	8r	.	8cc/ 8e/	.	.	.	.	.	24ee\L	.	24ee\L	.	24eee\Lyy	.	24eee\L	.
.	.	.	.	.	.	.	.	.	.	.	.	.	.	.	.	.	.	.	.	.	.	.	.	.	.	24dd\	.	24dd\	.	24ddd\yy	.	24ddd\	.
.	.	.	.	.	.	.	.	.	.	.	.	.	.	.	.	.	.	.	.	.	.	.	.	.	.	24cc\JJ	.	24cc\JJ	.	24ccc\JJyy	.	24ccc\JJ	.
*	*	*	*	*	*	*	*	*	*	*	*	*	*rep	*	*	*	*	*	*	*	*	*	*	*	*	*	*	*	*	*	*	*	*
!	!	!	!	!	!	!	!	!	!	!	!	!	!	!	!	!	!	!	!	!	!	!	!	!	!	!	!	!	!	!	!	!	!
.	.	8A-X\	.	8A-X\yy	.	8r	.	8r	.	8r	.	4Ra/	8r	.	8r	.	8A-X\	8c/ 8E-X/	.	8r	.	.	4A-X\	4ee-X\ 4cc\	.	8cc\L|	.	8cc\L|	.	8ccc\L|yy	.	8ccc\L|	.
!	!	!	!	!	!	!	!	!	!	!	!	!	!	!	!	!	!	!	!	!	!	!	!	!	!	!	!	!	!	!LO:TUP:a	!	!LO:TUP:a	!
.	.	8r	.	8ryy	.	8cc\ 8e-X\	.	8aa-X\ 8cc\	.	8ccc\ 8ee-X\	.	.	8Ree\	.	8C/	.	8r	8r	.	8cc/ 8e-X/	.	.	.	.	.	24ee-X\L	.	24ee-X\L	.	24eee-X\Lyy	.	24eee-X\L	.
.	.	.	.	.	.	.	.	.	.	.	.	.	.	.	.	.	.	.	.	.	.	.	.	.	.	24dd\	.	24dd\	.	24ddd\yy	.	24ddd\	.
.	.	.	.	.	.	.	.	.	.	.	.	.	.	.	.	.	.	.	.	.	.	.	.	.	.	24cc\JJ	.	24cc\JJ	.	24ccc\JJyy	.	24ccc\JJ	.
*	*	*	*	*	*	*	*	*	*	*	*	*	*Xrep	*	*	*	*	*	*	*	*	*	*	*	*	*	*	*	*	*	*	*	*
*	*	*	*	*	*	*	*	*	*	*	*	*	*rep	*	*	*	*	*	*	*	*	*	*	*	*	*	*	*	*	*	*	*	*
!	!	!	!	!	!	!	!	!	!	!	!	!	!	!	!	!	!	!	!	!	!	!	!	!	!	!	!	!	!	!	!	!	!
.	.	8G\	.	8G\yy	.	8r	.	8r	.	8r	.	4Ra/	8r	.	8r	.	8G\	8c/ 8En/	.	8r	.	.	4G\	4een\ 4cc\	.	8cc\L|	.	8cc\L|	.	8ccc\L|yy	.	8ccc\L|	.
!	!	!	!	!	!	!	!	!	!	!	!	!	!	!	!	!	!	!	!	!	!	!	!	!	!	!	!	!	!	!LO:TUP:a	!	!LO:TUP:a	!
.	.	8r	.	8ryy	.	8cc\ 8en\	.	8gg\ 8cc\	.	8ccc\ 8een\	.	.	8Ree\	.	8C/	.	8r	8r	.	8cc/ 8en/	.	.	.	.	.	24een\L	.	24een\L	.	24eeen\Lyy	.	24eeen\L	.
.	.	.	.	.	.	.	.	.	.	.	.	.	.	.	.	.	.	.	.	.	.	.	.	.	.	24dd\	.	24dd\	.	24ddd\yy	.	24ddd\	.
.	.	.	.	.	.	.	.	.	.	.	.	.	.	.	.	.	.	.	.	.	.	.	.	.	.	24cc\JJ	.	24cc\JJ	.	24ccc\JJyy	.	24ccc\JJ	.
*	*	*	*	*	*	*	*	*	*	*	*	*	*Xrep	*	*	*	*	*	*	*	*	*	*	*	*	*	*	*	*	*	*	*	*
*	*	*	*	*	*	*	*	*	*	*	*	*	*rep	*	*	*	*	*	*	*	*	*	*	*	*	*	*	*	*	*	*	*	*
!	!	!	!	!	!	!	!	!	!	!	!	!	!	!	!	!	!	!	!	!	!	!	!	!	!	!	!	!	!	!	!	!	!
.	.	8GG/	.	8GG/yy	.	8r	.	8r	.	8r	.	4Ra/	8r	.	8r	.	8GG/	8B/ 8D/	.	8r	.	.	4GG/	4ff\ 4dd\	.	8b\L|	.	8b\L|	.	8bb\L|yy	.	8bb\L|	.
!	!	!	!	!	!	!	!	!	!	!	!	!	!	!	!	!	!	!	!	!	!	!	!	!	!	!	!	!	!	!LO:TUP:a	!	!LO:TUP:a	!
.	.	8r	.	8ryy	.	8dd\ 8f\	.	8gg\ 8b\	.	8bb\ 8dd\	.	.	8Ree\	.	8GG/	.	8r	8r	.	8dd/ 8f/	.	.	.	.	.	24dd\L	.	24dd\L	.	24ddd\Lyy	.	24ddd\L	.
.	.	.	.	.	.	.	.	.	.	.	.	.	.	.	.	.	.	.	.	.	.	.	.	.	.	24cc\	.	24cc\	.	24ccc\yy	.	24ccc\	.
.	.	.	.	.	.	.	.	.	.	.	.	.	.	.	.	.	.	.	.	.	.	.	.	.	.	24b\JJ	.	24b\JJ	.	24bb\JJyy	.	24bb\JJ	.
*	*	*	*	*	*	*	*	*	*	*	*	*	*Xrep	*	*	*	*Xrep	*Xrep	*	*	*	*	*	*Xrep	*	*	*	*	*	*Xrep	*	*Xrep	*
!!LO:PB:g=original
=47	=47	=47	=47	=47	=47	=47	=47	=47	=47	=47	=47	=47	=47	=47	=47	=47	=47	=47	=47	=47	=47	=47	=47	=47	=47	=47	=47	=47	=47	=47	=47	=47	=47
*	*	*	*	*	*	*	*	*	*	*	*	*	*	*	*	*	*	*	*	*	*	*	*	*^	*	*^	*	*	*	*	*	*	*
1ryy	.	8C/	.	8C/yy	.	8cc\ 8e\	.	8gg\ 8cc\	.	8ccc\ 8ee\	.	8Ra/	8Ree\	.	8C/	.	8C/	8c/ 8E/	.	8cc/ 8e/	.	8c'/L	8C/	8ee/	8cc\	.	8cc/	8cc\	.	8cc\	.	8ccc\	.	8ccc\	.
.	.	8r	.	8ryy	.	8r	.	8r	.	8r	.	8r	8r	.	8r	.	8r	8r	.	8r	.	16c'/L	8r	8r	8ryy	.	8r	8ryy	.	8r	.	8r	.	8r	.
.	.	.	.	.	.	.	.	.	.	.	.	.	.	.	.	.	.	.	.	.	.	16e'/JJ	.	.	.	.	.	.	.	.	.	.	.	.	.
.	.	4r	.	4ryy	.	4r	.	4r	.	4r	.	4r	4r	.	4r	.	4r	4r	.	4r	.	8g'/L	4r	4r	4ryy	.	4r	4ryy	.	4r	.	4r	.	4r	.
.	.	.	.	.	.	.	.	.	.	.	.	.	.	.	.	.	.	.	.	.	.	16e'/L	.	.	.	.	.	.	.	.	.	.	.	.	.
.	.	.	.	.	.	.	.	.	.	.	.	.	.	.	.	.	.	.	.	.	.	16g'/JJ	.	.	.	.	.	.	.	.	.	.	.	.	.
*	*	*tremolo	*	*tremolo	*	*tremolo	*	*tremolo	*	*	*	*	*	*	*	*	*	*	*	*	*	*	*	*	*	*	*	*	*	*	*	*	*	*	*
.	.	32F#X^\LLL	.	32F#X^\LLLyy	.	32e-X\LLL 32c\	.	32a^/LLL	.	2r	.	2r	2r	.	2r	.	2r	2r	.	2r	.	8a'/L	(2F#X^\	(2ee-X/	[2cc\	.	(2a^/	(2a\	.	2r	.	2r	.	2r	.
.	.	32F#\	.	32F#\yy	.	32e-\ 32c\	.	32a/	.	.	.	.	.	.	.	.	.	.	.	.	.	.	.	.	.	.	.	.	.	.	.	.	.	.	.
.	.	32F#\	.	32F#\yy	.	32e-\ 32c\	.	32a/	.	.	.	.	.	.	.	.	.	.	.	.	.	.	.	.	.	.	.	.	.	.	.	.	.	.	.
.	.	32F#\	.	32F#\yy	.	32e-\ 32c\	.	32a/	.	.	.	.	.	.	.	.	.	.	.	.	.	.	.	.	.	.	.	.	.	.	.	.	.	.	.
.	.	32F#\	.	32F#\yy	.	32e-\ 32c\	.	32a/	.	.	.	.	.	.	.	.	.	.	.	.	.	(>8asSSS</	.	.	.	.	.	.	.	.	.	.	.	.	.
.	.	32F#\	.	32F#\yy	.	32e-\ 32c\	.	32a/	.	.	.	.	.	.	.	.	.	.	.	.	.	.	.	.	.	.	.	.	.	.	.	.	.	.	.
.	.	32F#\	.	32F#\yy	.	32e-\ 32c\	.	32a/	.	.	.	.	.	.	.	.	.	.	.	.	.	.	.	.	.	.	.	.	.	.	.	.	.	.	.
.	.	32F#\	.	32F#\yy	.	32e-\ 32c\	.	32a/	.	.	.	.	.	.	.	.	.	.	.	.	.	.	.	.	.	.	.	.	.	.	.	.	.	.	.
.	.	32F#\	.	32F#\yy	.	32e-\ 32c\	.	32a/	.	.	.	.	.	.	.	.	.	.	.	.	.	8b/)	.	.	.	.	.	.	.	.	.	.	.	.	.
.	.	32F#\	.	32F#\yy	.	32e-\ 32c\	.	32a/	.	.	.	.	.	.	.	.	.	.	.	.	.	.	.	.	.	.	.	.	.	.	.	.	.	.	.
.	.	32F#\	.	32F#\yy	.	32e-\ 32c\	.	32a/	.	.	.	.	.	.	.	.	.	.	.	.	.	.	.	.	.	.	.	.	.	.	.	.	.	.	.
.	.	32F#\	.	32F#\yy	.	32e-\ 32c\	.	32a/	.	.	.	.	.	.	.	.	.	.	.	.	.	.	.	.	.	.	.	.	.	.	.	.	.	.	.
.	.	32F#\	.	32F#\yy	.	32e-\ 32c\	.	32a/	.	.	.	.	.	.	.	.	.	.	.	.	.	8cc'/J	.	.	.	.	.	.	.	.	.	.	.	.	.
.	.	32F#\	.	32F#\yy	.	32e-\ 32c\	.	32a/	.	.	.	.	.	.	.	.	.	.	.	.	.	.	.	.	.	.	.	.	.	.	.	.	.	.	.
.	.	32F#\	.	32F#\yy	.	32e-\ 32c\	.	32a/	.	.	.	.	.	.	.	.	.	.	.	.	.	.	.	.	.	.	.	.	.	.	.	.	.	.	.
.	.	32F#\JJJ	.	32F#\JJJyy	.	32e-\JJJ 32c\	.	32a/JJJ	.	.	.	.	.	.	.	.	.	.	.	.	.	.	.	.	.	.	.	.	.	.	.	.	.	.	.
*	*	*Xtremolo	*	*Xtremolo	*	*Xtremolo	*	*Xtremolo	*	*	*	*	*	*	*	*	*	*	*	*	*	*	*	*	*	*	*	*	*	*	*	*	*	*	*
=48	=48	=48	=48	=48	=48	=48	=48	=48	=48	=48	=48	=48	=48	=48	=48	=48	=48	=48	=48	=48	=48	=48	=48	=48	=48	=48	=48	=48	=48	=48	=48	=48	=48	=48	=48
1ryy	.	8G\	.	8G\yy	.	8en\ 8c\	.	8g/	.	1r;	.	1r;	1r;	.	1r;	.	1r;	1r;	.	1r;	.	16e\LL	8G\)	8een/)	8cc\]	.	8g/)	8g\)	.	1r;	.	1r;	.	1r;	.
.	.	.	.	.	.	.	.	.	.	.	.	.	.	.	.	.	.	.	.	.	.	16gg\	.	.	.	.	.	.	.	.	.	.	.	.	.
.	.	8r	.	8ryy	.	8r	.	8r	.	.	.	.	.	.	.	.	.	.	.	.	.	16ff\	8r	8r	8ryy	.	8r	8ryy	.	.	.	.	.	.	.
.	.	.	.	.	.	.	.	.	.	.	.	.	.	.	.	.	.	.	.	.	.	16ee\JJ	.	.	.	.	.	.	.	.	.	.	.	.	.
.	.	4r	.	4ryy	.	4r	.	4r	.	.	.	.	.	.	.	.	.	.	.	.	.	16dd\LL	4r	4r	4ryy	.	4r	4ryy	.	.	.	.	.	.	.
.	.	.	.	.	.	.	.	.	.	.	.	.	.	.	.	.	.	.	.	.	.	16cc\	.	.	.	.	.	.	.	.	.	.	.	.	.
.	.	.	.	.	.	.	.	.	.	.	.	.	.	.	.	.	.	.	.	.	.	16b\	.	.	.	.	.	.	.	.	.	.	.	.	.
.	.	.	.	.	.	.	.	.	.	.	.	.	.	.	.	.	.	.	.	.	.	16a\JJ	.	.	.	.	.	.	.	.	.	.	.	.	.
.	.	4r	.	4ryy	.	4r	.	4r	.	.	.	.	.	.	.	.	.	.	.	.	.	16g/LL	4r	4r	4ryy	.	2r;	2ryy	.	.	.	.	.	.	.
.	.	.	.	.	.	.	.	.	.	.	.	.	.	.	.	.	.	.	.	.	.	16f/	.	.	.	.	.	.	.	.	.	.	.	.	.
.	.	.	.	.	.	.	.	.	.	.	.	.	.	.	.	.	.	.	.	.	.	16e/	.	.	.	.	.	.	.	.	.	.	.	.	.
.	.	.	.	.	.	.	.	.	.	.	.	.	.	.	.	.	.	.	.	.	.	16d/JJ	.	.	.	.	.	.	.	.	.	.	.	.	.
!	!	!	!LO:DY:rj	!	!LO:DY:rj	!	!	!	!LO:DY:rj	!	!	!	!	!	!	!	!	!	!	!	!	!	!	!	!	!LO:DY:rj	!	!	!	!	!	!	!	!	!
.	.	4GG;/	p	4GG;/yy	py	4d\ 4G\	.	4f;/	p	.	.	.	.	.	.	.	.	.	.	.	.	(16c/LL	4G;\	4ff\ 4dd;\	4r;yy	p	.	.	.	.	.	.	.	.	.
.	.	.	.	.	.	.	.	.	.	.	.	.	.	.	.	.	.	.	.	.	.	16B/)	.	.	.	.	.	.	.	.	.	.	.	.	.
.	.	.	.	.	.	.	.	.	.	.	.	.	.	.	.	.	.	.	.	.	.	16.a;/	.	.	.	.	.	.	.	.	.	.	.	.	.
.	.	.	.	.	.	.	.	.	.	.	.	.	.	.	.	.	.	.	.	.	.	32g/JJk	.	.	.	.	.	.	.	.	.	.	.	.	.
*	*	*	*	*	*	*	*	*	*	*	*	*	*	*	*	*	*	*	*	*	*	*	*	*v	*v	*	*	*	*	*	*	*	*	*	*
*	*	*	*	*	*	*	*	*	*	*	*	*	*	*	*	*	*	*	*	*	*	*	*	*	*	*v	*v	*	*	*	*	*	*	*
=49	=49	=49	=49	=49	=49	=49	=49	=49	=49	=49	=49	=49	=49	=49	=49	=49	=49	=49	=49	=49	=49	=49	=49	=49	=49	=49	=49	=49	=49	=49	=49	=49	=49
!	!	!	!LO:DY:rj	!	!LO:DY:rj	!	!LO:DY:rj	!	!	!	!LO:DY:rj	!	!	!	!	!	!	!	!	!	!	!	!	!	!	!	!	!	!	!LO:TX:a:t=Col Fl	!	!	!
1ryy	.	8C'/L	f	8C'/Lyy	fy	16c/LL	f	16e/LL 16G/	.	16ccc\LL 16cc'\	f	8Ra/	8Ree\L	.	8C/	.	8C/	8e\ 8G\	.	8cc/ 8e/	.	4c/	8G'\L	8ee\L 8cc'\	.	16cc'/LL	.	16cc'/LL	.	16ccc'\LLyy	.	16ccc'\LL	.
.	.	.	.	.	.	16G/	.	16g/	.	16gg\ 16g'\	.	.	.	.	.	.	.	.	.	.	.	.	.	.	.	16g'/	.	16g'/	.	16gg'\yy	.	16gg'\	.
.	.	8C'/	.	8C'/yy	.	16c/	.	16e/ 16G/	.	16aa\ 16a'\	.	8r	8Ree\	.	8r	.	8r	8r	.	8r	.	.	8G'\	8ee\ 8cc'\	.	16a'/	.	16a'/	.	16aa'\yy	.	16aa'\	.
.	.	.	.	.	.	16G/JJ	.	16g/JJ	.	16bb\JJ 16b'\	.	.	.	.	.	.	.	.	.	.	.	.	.	.	.	16b'/JJ	.	16b'/JJ	.	16bb'\JJyy	.	16bb'\JJ	.
.	.	8C'/	.	8C'/yy	.	16B/LL	.	16e/LL 16G/	.	16ccc\LL 16cc'\	.	8r	8Ree\	.	8r	.	8r	8r	.	8r	.	4r	8G'\	8ee\ 8cc'\	.	16cc'/LL	.	16cc'\LL	.	16ccc'\LLyy	.	16ccc'\LL	.
.	.	.	.	.	.	16G/	.	16g/	.	16gg\ 16g'\	.	.	.	.	.	.	.	.	.	.	.	.	.	.	.	16g/ 16e'/	.	16ee'\	.	16gg'\yy	.	16gg'\	.
*	*	*	*	*	*	*	*	*	*	*	*	*	*tremolo	*	*	*	*	*	*	*	*	*	*	*	*	*	*	*	*	*	*	*	*
.	.	(8GG^</J	.	(y8GG^</Jyy	.	16B^/	.	16f/ 16G^>/	.	(16eee\ 16ee\	.	8Ra/	32Ree\LL	.	8GG/L	.	8GG/L	8f\L 8G\	.	8b/L 8d/	.	.	[8G^\J	(8ff\J (8b\	.	(16ee/ 16g/	.	(16gg\	.	(y16eee\yy	.	(16eee\	.
.	.	.	.	.	.	.	.	.	.	.	.	.	32Ree\	.	.	.	.	.	.	.	.	.	.	.	.	.	.	.	.	.	.	.	.
.	.	.	.	.	.	16G/JJ	.	16g/JJ	.	16ddd\JJ 16dd\)	.	.	32Ree\	.	.	.	.	.	.	.	.	.	.	.	.	16dd/JJ 16f/)	.	16ff\JJ)	.	16ddd\JJ)yy	.	16ddd\JJ)	.
.	.	.	.	.	.	.	.	.	.	.	.	.	32Ree\JJJ	.	.	.	.	.	.	.	.	.	.	.	.	.	.	.	.	.	.	.	.
*	*	*	*	*	*	*	*	*	*	*	*	*	*Xtremolo	*	*	*	*	*	*	*	*	*	*	*	*	*	*	*	*	*repyy	*	*rep	*
*	*	*rep	*	*repy	*	*rep	*	*rep	*	*rep	*	*	*rep	*	*	*	*	*	*	*	*	*	*	*	*	*	*	*	*	*	*	*	*
.	.	8C'/L)	.	8C'/L)yy	.	16c/LL	.	16e/LL 16G/	.	16ccc\LL 16cc'\	.	8Ra/	8Ree\L	.	8C/J	.	8C/J	8e\J 8G\	.	8cc/J 8e/	.	2r	8G\L]	8ee\L 8cc\))	.	16cc/LL 16e'/	.	16ee'\LL	.	16ccc'\LLyy	.	16ccc'\LL	.
.	.	.	.	.	.	16G/	.	16g/	.	16gg\ 16g'\	.	.	.	.	.	.	.	.	.	.	.	.	.	.	.	16g'/	.	16g'\	.	16gg'\yy	.	16gg'\	.
.	.	8C'/	.	8C'/yy	.	16c/	.	16e/ 16G/	.	16aa\ 16a'\	.	8r	8Ree\	.	8r	.	8r	8r	.	8r	.	.	8G'\	8ee\ 8cc'\	.	16a'/	.	16a'\	.	16aa'\yy	.	16aa'\	.
.	.	.	.	.	.	16G/JJ	.	16g/JJ	.	16bb\JJ 16b'\	.	.	.	.	.	.	.	.	.	.	.	.	.	.	.	16b'/JJ	.	16b'\JJ	.	16bb'\JJyy	.	16bb'\JJ	.
.	.	8C'/	.	8C'/yy	.	16B/LL	.	16e/LL 16G/	.	16ccc\LL 16cc'\	.	8r	8Ree\	.	8r	.	8r	8r	.	8r	.	.	8G'\	8ee\ 8cc'\	.	16cc'/LL	.	16cc'\LL	.	16ccc'\LLyy	.	16ccc'\LL	.
.	.	.	.	.	.	16G/	.	16g/	.	16gg\ 16g'\	.	.	.	.	.	.	.	.	.	.	.	.	.	.	.	16g/ 16e'/	.	16ee'\	.	16gg'\yy	.	16gg'\	.
*	*	*	*	*	*	*	*	*	*	*	*	*	*tremolo	*	*	*	*	*	*	*	*	*	*	*	*	*	*	*	*	*	*	*	*
.	.	(8GG'/J	.	(y8GG'/Jyy	.	16B^/	.	16f/ 16G^/	.	(16eee\ 16ee\	.	8Ra/	32Ree\LL	.	8GG/	.	8GG/	8f\ 8G\	.	8b/ 8d/	.	.	(8G'^\J	(8ff\J (8dd\	.	(16ee/ 16g/	.	(16gg\	.	(y16eee\yy	.	(16eee\	.
.	.	.	.	.	.	.	.	.	.	.	.	.	32Ree\	.	.	.	.	.	.	.	.	.	.	.	.	.	.	.	.	.	.	.	.
.	.	.	.	.	.	16G/JJ	.	16g/JJ	.	16ddd\JJ 16dd\)	.	.	32Ree\	.	.	.	.	.	.	.	.	.	.	.	.	16dd/JJ 16f/)	.	16ff\JJ)	.	16ddd\JJ)yy	.	16ddd\JJ)	.
.	.	.	.	.	.	.	.	.	.	.	.	.	32Ree\JJJ	.	.	.	.	.	.	.	.	.	.	.	.	.	.	.	.	.	.	.	.
*	*	*	*	*	*	*	*	*	*	*	*	*	*Xtremolo	*	*	*	*	*	*	*	*	*	*	*	*	*	*	*	*	*Xrep	*	*Xrep	*
*	*	*Xrep	*	*Xrep	*	*Xrep	*	*Xrep	*	*Xrep	*	*	*Xrep	*	*	*	*	*	*	*	*	*	*	*	*	*	*	*	*	*	*	*	*
!!LO:PB:g=original
=50	=50	=50	=50	=50	=50	=50	=50	=50	=50	=50	=50	=50	=50	=50	=50	=50	=50	=50	=50	=50	=50	=50	=50	=50	=50	=50	=50	=50	=50	=50	=50	=50	=50
*	*	*	*	*	*	*	*	*	*	*	*	*	*2\right	*	*	*	*	*	*	*	*	*	*	*	*	*	*	*	*	*	*	*	*
*	*	*	*	*	*	*	*	*	*	*	*	*	*tremolo	*	*	*	*	*	*	*	*	*	*	*	*	*	*	*	*	*	*	*	*
8Re/L	.	8C/L)	.	8C/L)yy	.	16c/LL	.	16e/LL 16G/	.	16ccc\LL 16cc'\	.	4Ra/	8Ree\L	.	8C/L	.	8C/L	8e\L 8G\	.	8cc/L 8e/	.	1r	8c\L)	8ee\L 8cc\))	.	16cc/LL 16e'/	.	16cc'\LL	.	16ccc'\LLyy	.	16ccc'\LL	.
.	.	.	.	.	.	16G/	.	16g/	.	16gg\ 16g'\	.	.	.	.	.	.	.	.	.	.	.	.	.	.	.	16g/ 16e'/	.	16ee'\	.	16gg'\yy	.	16gg'\	.
*tremolo	*	*	*	*	*	*	*	*	*	*	*	*	*	*	*	*	*	*	*	*	*	*	*	*	*	*	*	*	*	*	*	*	*
32Re/LL	.	8GG/J	.	8GG/Jyy	.	16c/	.	16f/ 16G/	.	(16eee\ 16ee\	.	.	8Ree\	.	8GG/J	.	8GG/J	8f\J 8G\	.	8b/J 8d/	.	.	8G\J	8ff\J 8b\	.	(16ee/ 16g/	.	(16gg\	.	(y16eee\yy	.	(16eee\	.
32Re/	.	.	.	.	.	.	.	.	.	.	.	.	.	.	.	.	.	.	.	.	.	.	.	.	.	.	.	.	.	.	.	.	.
32Re/	.	.	.	.	.	16G/JJ	.	16g/JJ	.	16ddd\JJ 16dd\)	.	.	.	.	.	.	.	.	.	.	.	.	.	.	.	16dd/JJ 16f/)	.	16ff\JJ)	.	16ddd\JJ)yy	.	16ddd\JJ)	.
32Re/JJJ	.	.	.	.	.	.	.	.	.	.	.	.	.	.	.	.	.	.	.	.	.	.	.	.	.	.	.	.	.	.	.	.	.
*Xtremolo	*	*	*	*	*	*	*	*	*	*	*	*	*	*	*rep	*	*rep	*rep	*	*rep	*	*	*rep	*rep	*	*	*	*	*	*repyy	*	*rep	*
*rep	*	*rep	*	*repy	*	*rep	*	*rep	*	*rep	*	*	*	*	*	*	*	*	*	*	*	*	*	*	*	*	*	*	*	*	*	*	*
8Re/L	.	8C/L	.	8C/Lyy	.	16c/LL	.	16e/LL 16G/	.	16ccc\LL 16cc'\	.	4Ra/	8Ree\	.	8C/L	.	8C/L	8e\L 8G\	.	8cc/L 8e/	.	.	8c\L	8ee\L 8cc\	.	16cc/LL 16e'/	.	16ee'\LL	.	16ccc'\LLyy	.	16ccc'\LL	.
.	.	.	.	.	.	16G/	.	16g/	.	16gg\ 16g'\	.	.	.	.	.	.	.	.	.	.	.	.	.	.	.	16g/ 16e'/	.	16ee'\	.	16gg'\yy	.	16gg'\	.
*	*	*	*	*	*	*	*	*	*	*	*	*	*	*	*	*	*	*	*	*	*	*	*	*	*	*	*	*	*	*	*	*	*
*tremolo	*	*	*	*	*	*	*	*	*	*	*	*	*	*	*	*	*	*	*	*	*	*	*	*	*	*	*	*	*	*	*	*	*
32Re/LL	.	8GG/J	.	8GG/Jyy	.	16c/	.	16f/ 16G/	.	(16eee\ 16ee\	.	.	8Ree\J	.	8GG/J	.	8GG/J	8f\J 8G\	.	8b/J 8d/	.	.	8G\J	8ff\J 8b\	.	(16ee/ 16g/	.	(16gg\	.	(y16eee\yy	.	(16eee\	.
32Re/	.	.	.	.	.	.	.	.	.	.	.	.	.	.	.	.	.	.	.	.	.	.	.	.	.	.	.	.	.	.	.	.	.
32Re/	.	.	.	.	.	16G/JJ	.	16g/JJ	.	16ddd\JJ 16dd\)	.	.	.	.	.	.	.	.	.	.	.	.	.	.	.	16dd/JJ 16f/)	.	16ff\JJ)	.	16ddd\JJ)yy	.	16ddd\JJ)	.
32Re/JJJ	.	.	.	.	.	.	.	.	.	.	.	.	.	.	.	.	.	.	.	.	.	.	.	.	.	.	.	.	.	.	.	.	.
*Xtremolo	*	*Xrep	*	*Xrep	*	*Xrep	*	*Xrep	*	*Xrep	*	*	*	*	*Xrep	*	*Xrep	*Xrep	*	*Xrep	*	*	*Xrep	*Xrep	*	*	*	*	*	*Xrep	*	*Xrep	*
*Xrep	*	*	*	*	*	*	*	*	*	*	*	*	*	*	*rep	*	*rep	*rep	*	*rep	*	*	*rep	*rep	*	*rep	*	*rep	*	*repyy	*	*rep	*
*rep	*	*rep	*	*repy	*	*rep	*	*rep	*	*rep	*	*	*	*	*	*	*	*	*	*	*	*	*	*	*	*	*	*	*	*	*	*	*
8Re/L	.	8C/L	.	8C/Lyy	.	16c/LL	.	16e/LL 16G/	.	16ccc\LL 16cc'\	.	4Ra/	8Ree\L	.	8C/L	.	8C/L	8e\L 8G\	.	8cc/L 8e/	.	.	8c\L	8ee\L 8cc\	.	16cc/LL 16e'/	.	16cc'\LL	.	16ccc'\LLyy	.	16ccc'\LL	.
.	.	.	.	.	.	16G/	.	16g/	.	16gg\ 16g'\	.	.	.	.	.	.	.	.	.	.	.	.	.	.	.	16g/ 16e'/	.	16ee'\	.	16gg'\yy	.	16gg'\	.
*tremolo	*	*	*	*	*	*	*	*	*	*	*	*	*	*	*	*	*	*	*	*	*	*	*	*	*	*	*	*	*	*	*	*	*
32Re/LL	.	8GG/J	.	8GG/Jyy	.	16c/	.	16f/ 16G/	.	(16eee\ 16ee\	.	.	8Ree\	.	8GG/J	.	8GG/J	8f\J 8G\	.	8b/J 8d/	.	.	8G\J	8ff\J 8b\	.	(16ee/ 16g/	.	(16gg\	.	(y16eee\yy	.	(16eee\	.
32Re/	.	.	.	.	.	.	.	.	.	.	.	.	.	.	.	.	.	.	.	.	.	.	.	.	.	.	.	.	.	.	.	.	.
32Re/	.	.	.	.	.	16G/JJ	.	16g/JJ	.	16ddd\JJ 16dd\)	.	.	.	.	.	.	.	.	.	.	.	.	.	.	.	16dd/JJ 16f/)	.	16ff\JJ)	.	16ddd\JJ)yy	.	16ddd\JJ)	.
32Re/JJJ	.	.	.	.	.	.	.	.	.	.	.	.	.	.	.	.	.	.	.	.	.	.	.	.	.	.	.	.	.	.	.	.	.
*Xtremolo	*	*Xrep	*	*Xrep	*	*Xrep	*	*Xrep	*	*Xrep	*	*	*	*	*Xrep	*	*Xrep	*Xrep	*	*Xrep	*	*	*Xrep	*Xrep	*	*Xrep	*	*Xrep	*	*Xrep	*	*Xrep	*
*Xrep	*	*	*	*	*	*	*	*	*	*	*	*	*	*	*	*	*	*	*	*	*	*	*	*	*	*	*	*	*	*	*	*	*
*rep	*	*rep	*	*repy	*	*rep	*	*rep	*	*rep	*	*	*	*	*rep	*	*rep	*rep	*	*rep	*	*	*rep	*rep	*	*rep	*	*rep	*	*repyy	*	*rep	*
8Re/L	.	8C/L	.	8C/Lyy	.	16c/LL	.	16e/LL 16G/	.	16ccc\LL 16cc'\	.	4Ra/	8Ree\	.	8C/L	.	8C/L	8e\L 8G\	.	8cc/L 8e/	.	.	8c\L	8ee\L 8cc\	.	16cc/LL 16e'/	.	16ee'\LL	.	16ccc'\LLyy	.	16ccc'\LL	.
.	.	.	.	.	.	16G/	.	16g/	.	16gg\ 16g'\	.	.	.	.	.	.	.	.	.	.	.	.	.	.	.	16g/ 16e'/	.	16ee'\	.	16gg'\yy	.	16gg'\	.
*tremolo	*	*	*	*	*	*	*	*	*	*	*	*	*	*	*	*	*	*	*	*	*	*	*	*	*	*	*	*	*	*	*	*	*
32Re/LL	.	8GG/J	.	8GG/Jyy	.	16c/	.	16f/ 16G/	.	(16eee\ 16ee\	.	.	8Ree\J	.	8GG/J	.	8GG/J	8f\J 8G\	.	8b/J 8d/	.	.	8G\J	8ff\J 8b\	.	(16ee/ 16g/	.	(16gg\	.	(y16eee\yy	.	(16eee\	.
32Re/	.	.	.	.	.	.	.	.	.	.	.	.	.	.	.	.	.	.	.	.	.	.	.	.	.	.	.	.	.	.	.	.	.
32Re/	.	.	.	.	.	16G/JJ	.	16g/JJ	.	16ddd\JJ 16dd\)	.	.	.	.	.	.	.	.	.	.	.	.	.	.	.	16dd/JJ 16f/)	.	16ff\JJ)	.	16ddd\JJ)yy	.	16ddd\JJ)	.
32Re/JJJ	.	.	.	.	.	.	.	.	.	.	.	.	.	.	.	.	.	.	.	.	.	.	.	.	.	.	.	.	.	.	.	.	.
*Xtremolo	*	*Xrep	*	*Xrep	*	*Xrep	*	*Xrep	*	*Xrep	*	*	*Xtremolo	*	*Xrep	*	*Xrep	*Xrep	*	*Xrep	*	*	*Xrep	*Xrep	*	*Xrep	*	*Xrep	*	*Xrep	*	*Xrep	*
*Xrep	*	*	*	*	*	*	*	*	*	*	*	*	*	*	*	*	*	*	*	*	*	*	*	*	*	*	*	*	*	*	*	*	*
=51	=51	=51	=51	=51	=51	=51	=51	=51	=51	=51	=51	=51	=51	=51	=51	=51	=51	=51	=51	=51	=51	=51	=51	=51	=51	=51	=51	=51	=51	=51	=51	=51	=51
8Re'/L	.	4C/	.	4C/yy	.	4c\	.	4cc/ 4e/ 4G/	.	4ccc\ 4cc\	.	4Ra/	4Ree\	.	4C/	.	8C/L	8e\L 8G\	.	8cc/L 8e/	.	8cc/L	4c\	4ee\ 4cc\	.	4cc/ 4e/	.	4ee\	.	4ccc\yy	.	4ccc\	.
*tremolo	*	*	*	*	*	*	*	*	*	*	*	*	*	*	*	*	*	*	*	*	*	*	*	*	*	*	*	*	*	*	*	*	*
(32Re/LL	.	.	.	.	.	.	.	.	.	.	.	.	.	.	.	.	16C/L	16e\L 16G\	.	16g/L 16e/	.	16g/L	.	.	.	.	.	.	.	.	.	.	.
32Re/	.	.	.	.	.	.	.	.	.	.	.	.	.	.	.	.	.	.	.	.	.	.	.	.	.	.	.	.	.	.	.	.	.
32Re/	.	.	.	.	.	.	.	.	.	.	.	.	.	.	.	.	16C/JJ	16e\JJ 16G\	.	16g/JJ 16e/	.	16g/JJ	.	.	.	.	.	.	.	.	.	.	.
32Re/JJJ	.	.	.	.	.	.	.	.	.	.	.	.	.	.	.	.	.	.	.	.	.	.	.	.	.	.	.	.	.	.	.	.	.
*Xtremolo	*	*	*	*	*	*	*	*	*	*	*	*	*	*	*	*	*	*	*	*	*	*	*	*	*	*	*	*	*	*	*	*	*
8Re/L)	.	4r	.	4ryy	.	4r	.	4r	.	4r	.	4r	4r	.	4r	.	8C/L	8e\L 8G\	.	8g/L 8e/	.	8g/L	4r	4r	.	8r	.	8r	.	8ryy	.	8r	.
8Re'/J	.	.	.	.	.	.	.	.	.	.	.	.	.	.	.	.	8C/J	8e\J 8G\	.	8ee/J 8g/	.	8ee/J	.	.	.	(16g/LL	.	(16gg\LL	.	(y16gg\LLyy	.	(16gg\LL	.
.	.	.	.	.	.	.	.	.	.	.	.	.	.	.	.	.	.	.	.	.	.	.	.	.	.	32a/L	.	32aa\L	.	32aa\Lyy	.	32aa\L	.
.	.	.	.	.	.	.	.	.	.	.	.	.	.	.	.	.	.	.	.	.	.	.	.	.	.	32b/JJJ	.	32bb\JJJ	.	32bb\JJJyy	.	32bb\JJJ	.
8Re'/L	.	4C/	.	4C/yy	.	4cc\ 4e\ 4G\	.	4ee/ 4cc/ 4g/ 4c/	.	4ccc\ 4ee\ 4g\	.	4Ra/	4Ree\	.	4C/	.	8C/L	8e\L 8G\	.	8cc/L 8e/	.	8cc/L	4G\	4ee\ 4cc\	.	4cc/)	.	4ccc\)	.	4ccc\)yy	.	4ccc\)	.
*tremolo	*	*	*	*	*	*	*	*	*	*	*	*	*	*	*	*	*	*	*	*	*	*	*	*	*	*	*	*	*	*	*	*	*
(32Re/LL	.	.	.	.	.	.	.	.	.	.	.	.	.	.	.	.	16C/L	16e\L 16G\	.	16g/L 16e/	.	16g/L	.	.	.	.	.	.	.	.	.	.	.
32Re/	.	.	.	.	.	.	.	.	.	.	.	.	.	.	.	.	.	.	.	.	.	.	.	.	.	.	.	.	.	.	.	.	.
32Re/	.	.	.	.	.	.	.	.	.	.	.	.	.	.	.	.	16C/JJ	16e\JJ 16G\	.	16g/JJ 16e/	.	16g/JJ	.	.	.	.	.	.	.	.	.	.	.
32Re/JJJ	.	.	.	.	.	.	.	.	.	.	.	.	.	.	.	.	.	.	.	.	.	.	.	.	.	.	.	.	.	.	.	.	.
*Xtremolo	*	*	*	*	*	*	*	*	*	*	*	*	*	*	*	*	*	*	*	*	*	*	*	*	*	*	*	*	*	*	*	*	*
8Re/L)	.	4r	.	4ryy	.	4r	.	4r	.	4r	.	4r	4r	.	4r	.	8C/L	8e\L 8G\	.	8g/L 8e/	.	8g/L	4r	4r	.	8r	.	8r	.	8ryy	.	8r	.
8Re'/J	.	.	.	.	.	.	.	.	.	.	.	.	.	.	.	.	8C/J	8e\J 8G\	.	8ee/J 8g/	.	8ee/J	.	.	.	(16g/LL	.	(16gg\LL	.	(y16gg\LLyy	.	(16gg\LL	.
.	.	.	.	.	.	.	.	.	.	.	.	.	.	.	.	.	.	.	.	.	.	.	.	.	.	32a/L	.	32aa\L	.	32aa\Lyy	.	32aa\L	.
.	.	.	.	.	.	.	.	.	.	.	.	.	.	.	.	.	.	.	.	.	.	.	.	.	.	32b/JJJ	.	32bb\JJJ	.	32bb\JJJyy	.	32bb\JJJ	.
=52	=52	=52	=52	=52	=52	=52	=52	=52	=52	=52	=52	=52	=52	=52	=52	=52	=52	=52	=52	=52	=52	=52	=52	=52	=52	=52	=52	=52	=52	=52	=52	=52	=52
1Rett	.	4C/	.	4C/yy	.	4cc\ 4e\ 4G\ 4C\	.	4gg\ 4cc\ 4e\ 4G\	.	4ccc\ 4ee\ 4g\	.	4Ra/	4Ree\	.	1CTT	.	4C/	4e\ 4G\	.	4cc/ 4e/	.	4cc\	4G\	4ee\ 4cc\	.	4cc\)	.	4ccc\)	.	4ccc\)yy	.	4ccc\)	.
.	.	.	.	.	.	.	.	.	.	.	.	.	.	.	.	.	.	.	.	.	.	.	.	.	.	.	.	.	.	.	.	.	.
.	.	.	.	.	.	.	.	.	.	.	.	.	.	.	.	.	.	.	.	.	.	.	.	.	.	.	.	.	.	.	.	.	.
.	.	.	.	.	.	.	.	.	.	.	.	.	.	.	.	.	.	.	.	.	.	.	.	.	.	.	.	.	.	.	.	.	.
.	.	.	.	.	.	.	.	.	.	.	.	.	.	.	.	.	.	.	.	.	.	.	.	.	.	.	.	.	.	.	.	.	.
.	.	.	.	.	.	.	.	.	.	.	.	.	.	.	.	.	.	.	.	.	.	.	.	.	.	.	.	.	.	.	.	.	.
.	.	.	.	.	.	.	.	.	.	.	.	.	.	.	.	.	.	.	.	.	.	.	.	.	.	.	.	.	.	.	.	.	.
.	.	.	.	.	.	.	.	.	.	.	.	.	.	.	.	.	.	.	.	.	.	.	.	.	.	.	.	.	.	.	.	.	.
.	.	4r	.	4ryy	.	4r	.	4r	.	4r	.	4r	4r	.	.	.	4r	4r	.	4r	.	4r	4r	4r	.	4r	.	4r	.	4ryy	.	4r	.
.	.	.	.	.	.	.	.	.	.	.	.	.	.	.	.	.	.	.	.	.	.	.	.	.	.	.	.	.	.	.	.	.	.
.	.	.	.	.	.	.	.	.	.	.	.	.	.	.	.	.	.	.	.	.	.	.	.	.	.	.	.	.	.	.	.	.	.
.	.	.	.	.	.	.	.	.	.	.	.	.	.	.	.	.	.	.	.	.	.	.	.	.	.	.	.	.	.	.	.	.	.
.	.	.	.	.	.	.	.	.	.	.	.	.	.	.	.	.	.	.	.	.	.	.	.	.	.	.	.	.	.	.	.	.	.
.	.	.	.	.	.	.	.	.	.	.	.	.	.	.	.	.	.	.	.	.	.	.	.	.	.	.	.	.	.	.	.	.	.
.	.	.	.	.	.	.	.	.	.	.	.	.	.	.	.	.	.	.	.	.	.	.	.	.	.	.	.	.	.	.	.	.	.
.	.	.	.	.	.	.	.	.	.	.	.	.	.	.	.	.	.	.	.	.	.	.	.	.	.	.	.	.	.	.	.	.	.
.	.	4C/	.	4C/yy	.	4cc\ 4e\ 4G\ 4C\	.	4ccc\ 4ee\ 4g\	.	4eee\	.	4Ra/	4Ree\	.	.	.	4C/	4e\ 4G\	.	4cc/ 4g/	.	4ee\	4c\	4gg\ 4ee\	.	4gg\ 4ee\	.	4ccc\	.	4eee\yy	.	4eee\	.
.	.	.	.	.	.	.	.	.	.	.	.	.	.	.	.	.	.	.	.	.	.	.	.	.	.	.	.	.	.	.	.	.	.
.	.	.	.	.	.	.	.	.	.	.	.	.	.	.	.	.	.	.	.	.	.	.	.	.	.	.	.	.	.	.	.	.	.
.	.	.	.	.	.	.	.	.	.	.	.	.	.	.	.	.	.	.	.	.	.	.	.	.	.	.	.	.	.	.	.	.	.
.	.	.	.	.	.	.	.	.	.	.	.	.	.	.	.	.	.	.	.	.	.	.	.	.	.	.	.	.	.	.	.	.	.
.	.	.	.	.	.	.	.	.	.	.	.	.	.	.	.	.	.	.	.	.	.	.	.	.	.	.	.	.	.	.	.	.	.
.	.	.	.	.	.	.	.	.	.	.	.	.	.	.	.	.	.	.	.	.	.	.	.	.	.	.	.	.	.	.	.	.	.
.	.	.	.	.	.	.	.	.	.	.	.	.	.	.	.	.	.	.	.	.	.	.	.	.	.	.	.	.	.	.	.	.	.
.	.	8.r	.	8.ryy	.	8.r	.	8.r	.	8.r	.	4r	4r	.	.	.	8.r	8.r	.	8.r	.	8.r	8.r	8.r	.	8.r	.	8.r	.	8.ryy	.	8.r	.
.	.	.	.	.	.	.	.	.	.	.	.	.	.	.	.	.	.	.	.	.	.	.	.	.	.	.	.	.	.	.	.	.	.
.	.	.	.	.	.	.	.	.	.	.	.	.	.	.	.	.	.	.	.	.	.	.	.	.	.	.	.	.	.	.	.	.	.
.	.	.	.	.	.	.	.	.	.	.	.	.	.	.	.	.	.	.	.	.	.	.	.	.	.	.	.	.	.	.	.	.	.
.	.	.	.	.	.	.	.	.	.	.	.	.	.	.	.	.	.	.	.	.	.	.	.	.	.	.	.	.	.	.	.	.	.
.	.	.	.	.	.	.	.	.	.	.	.	.	.	.	.	.	.	.	.	.	.	.	.	.	.	.	.	.	.	.	.	.	.
.	.	16C/	.	16C/yy	.	16c/ 16C/	.	16c/	.	16c/	.	.	.	.	.	.	16C/	16c\	.	16c/	.	16c/	16C/	16cc/ 16c/	.	16cc\	.	16cc\	.	16cc\yy	.	16cc\	.
.	.	.	.	.	.	.	.	.	.	.	.	.	.	.	.	.	.	.	.	.	.	.	.	.	.	.	.	.	.	.	.	.	.
=53	=53	=53	=53	=53	=53	=53	=53	=53	=53	=53	=53	=53	=53	=53	=53	=53	=53	=53	=53	=53	=53	=53	=53	=53	=53	=53	=53	=53	=53	=53	=53	=53	=53
4Re/	.	1C/	.	1C/yy	.	1c/ 1C/	.	1c/	.	1c/	.	4Ra/	4Ree\	.	4C/	.	1C/	1c\	.	1c/	.	1c/	1C/	1cc/ 1c/	.	1cc\	.	1cc\	.	1cc\yy	.	1cc\	.
4r	.	.	.	.	.	.	.	.	.	.	.	4r	4r	.	4r	.	.	.	.	.	.	.	.	.	.	.	.	.	.	.	.	.	.
2r	.	.	.	.	.	.	.	.	.	.	.	2r	2r	.	2r	.	.	.	.	.	.	.	.	.	.	.	.	.	.	.	.	.	.
==	==	==	==	==	==	==	==	==	==	==	==	==	==	==	==	==	==	==	==	==	==	==	==	==	==	==	==	==	==	==	==	==	==
*-	*-	*-	*-	*-	*-	*-	*-	*-	*-	*-	*-	*-	*-	*-	*-	*-	*-	*-	*-	*-	*-	*-	*-	*-	*-	*-	*-	*-	*-	*-	*-	*-	*-
!!!system-decoration: {s1,s2},s3,s4,s5,s6,{s7,s8},{s9,s10},s11,{s12,s13},{s14,s15},s16,{s17,s18},s19
!!!RDF**kern: > = above
!!!RDF**kern: < = below
!!!RDF**kern: | = vertical stroke
!!!EED: Andrzej Borzym
!!!EST: 2021-06-25
!!!AIN: 1 bdrum 1 cbass 1 cello 1 clars 1 cor 1 drumS 1 fagot 1 flt 1 oboe 1 picco 1 timpa 1 trngl 2 tromp 2 tromt 1 viola 2 violn
!!!ENC: Krzysztof Stępień
!!!END: 2021-06-09
